;FLAVOR:Marlin
;TIME:1301
;Filament used: 0.722921m
;Layer height: 0.2
;MINX:88.733
;MINY:93.368
;MINZ:0.2
;MAXX:133.917
;MAXY:139.633
;MAXZ:12.4
;Generated with Cura_SteamEngine 4.10.0
M140 S50
M105
M190 S50
M104 S200
M105
M109 S200
M82 ;absolute extrusion mode
; Ender 3 Custom Start G-code
G92 E0 ; Reset Extruder
G28 ; Home all axes
G1 Z2.0 F3000 ; Move Z Axis up little to prevent scratching of Heat Bed
G1 X0.1 Y20 Z0.3 F5000.0 ; Move to start position
G1 X0.1 Y200.0 Z0.3 F1500.0 E15 ; Draw the first line
G1 X0.4 Y200.0 Z0.3 F5000.0 ; Move to side a little
G1 X0.4 Y20 Z0.3 F1500.0 E30 ; Draw the second line
G92 E0 ; Reset Extruder
G1 Z2.0 F3000 ; Move Z Axis up little to prevent scratching of Heat Bed
G1 X5 Y20 Z0.3 F5000.0 ; Move over to prevent blob squish
G92 E0
G92 E0
G1 F2700 E-5
;LAYER_COUNT:62
;LAYER:0
M107
G0 F6000 X93.522 Y97.525 Z0.2
;TYPE:SKIRT
G1 F2700 E0
G1 F1200 X93.994 Y97.121 E0.02066
G1 X94.425 Y96.748 E0.03962
G1 X94.953 Y96.332 E0.06198
G1 X95.702 Y95.857 E0.09148
G1 X96.406 Y95.467 E0.11825
G1 X96.788 Y95.251 E0.13284
G1 X97.418 Y94.933 E0.15631
G1 X98.319 Y94.596 E0.18831
G1 X99.683 Y94.184 E0.2357
G1 X100.43 Y93.998 E0.2613
G1 X101.335 Y93.88 E0.29166
G1 X102.379 Y93.809 E0.32646
G1 X102.746 Y93.781 E0.33871
G1 X103.664 Y93.769 E0.36924
G1 X104.469 Y93.849 E0.39615
G1 X105.924 Y94.076 E0.44513
G1 X106.929 Y94.306 E0.47942
G1 X107.575 Y94.533 E0.50219
G1 X108.835 Y95.04 E0.54736
G1 X109.589 Y95.385 E0.57494
G1 X110.348 Y95.842 E0.60441
G1 X111.412 Y96.572 E0.64733
G1 X111.593 Y96.711 E0.65492
G1 X112.108 Y96.21 E0.67881
G1 X112.712 Y95.734 E0.70439
G1 X113.456 Y95.272 E0.73352
G1 X113.692 Y95.144 E0.74245
G1 X114.386 Y94.813 E0.76802
G1 X115.111 Y94.556 E0.79361
G1 X115.653 Y94.417 E0.81222
G1 X115.916 Y94.36 E0.82117
G1 X116.675 Y94.236 E0.84675
G1 X117.483 Y94.192 E0.87366
G1 X117.535 Y94.192 E0.87539
G1 X118.303 Y94.232 E0.90097
G1 X119.064 Y94.352 E0.92659
G1 X119.315 Y94.405 E0.93513
G1 X120.058 Y94.602 E0.96069
G1 X120.777 Y94.876 E0.98628
G1 X121.606 Y95.307 E1.01736
G1 X121.83 Y95.442 E1.02606
G1 X122.467 Y95.873 E1.05164
G1 X123.056 Y96.367 E1.07721
G1 X123.591 Y96.92 E1.1028
G1 X123.914 Y97.319 E1.11987
G1 X124.18 Y97.671 E1.13455
G1 X124.611 Y98.307 E1.1601
G1 X124.974 Y98.986 E1.18571
G1 X125.166 Y99.432 E1.20186
G1 X125.224 Y99.58 E1.20715
G1 X125.312 Y99.817 E1.21555
G1 X125.468 Y100.259 E1.23114
G1 X125.717 Y101.13 E1.26127
G1 X125.73 Y101.189 E1.26328
G1 X125.856 Y101.947 E1.28884
G1 X125.903 Y102.715 E1.31443
G1 X125.896 Y103.112 E1.32764
G1 X125.873 Y103.626 E1.34475
G1 X125.866 Y103.626 E1.34498
G1 X125.84 Y104.117 E1.36134
G1 X125.75 Y104.694 E1.38076
G1 X126.787 Y105.339 E1.42138
G1 X127.418 Y105.779 E1.44697
G1 X128.1 Y106.38 E1.4772
G1 X129.463 Y107.738 E1.54119
G1 X129.979 Y108.308 E1.56677
G1 X130.5 Y109.034 E1.59649
G1 X131.533 Y110.673 E1.66092
G1 X131.909 Y111.344 E1.68651
G1 X132.269 Y112.207 E1.71761
G1 X132.864 Y113.928 E1.77817
G1 X133.087 Y114.664 E1.80375
G1 X133.257 Y115.617 E1.83595
G1 X133.471 Y117.53 E1.89997
G1 X133.517 Y118.366 E1.92782
G1 X133.469 Y119.206 E1.9558
G1 X133.253 Y121.096 E2.01907
G1 X133.097 Y121.983 E2.04903
G1 X132.884 Y122.712 E2.07429
G1 X132.249 Y124.538 E2.13859
G1 X131.959 Y125.25 E2.16416
G1 X131.52 Y126.053 E2.1946
G1 X130.495 Y127.679 E2.25853
G1 X130.052 Y128.308 E2.28412
G1 X129.468 Y128.966 E2.31338
G1 X128.104 Y130.33 E2.37754
G1 X127.464 Y130.899 E2.40602
G1 X127.44 Y130.918 E2.40704
G1 X126.777 Y131.386 E2.43403
G1 X126.099 Y131.811 E2.46064
G1 X126.102 Y132.051 E2.46863
G1 X126.032 Y132.817 E2.49421
G1 X125.882 Y133.571 E2.51978
G1 X125.655 Y134.306 E2.54537
G1 X125.353 Y135.014 E2.57097
G1 X124.98 Y135.686 E2.59653
G1 X124.538 Y136.316 E2.62213
G1 X124.033 Y136.896 E2.6477
G1 X123.471 Y137.421 E2.67328
G1 X122.858 Y137.885 E2.69885
G1 X122.199 Y138.283 E2.72446
G1 X121.503 Y138.61 E2.75004
G1 X120.777 Y138.863 E2.77561
G1 X120.028 Y139.039 E2.8012
G1 X119.265 Y139.137 E2.82678
G1 X118.557 Y139.154 E2.85034
G1 X117.514 Y139.233 E2.88513
G1 X117.455 Y139.233 E2.88709
G1 X116.687 Y139.193 E2.91267
G1 X115.927 Y139.074 E2.93826
G1 X115.184 Y138.876 E2.96383
G1 X114.813 Y138.745 E2.97692
G1 X114.274 Y138.539 E2.99611
G1 X113.571 Y138.228 E3.02168
G1 X113.434 Y138.149 E3.02694
G1 X113.182 Y138.046 E3.03599
G1 X112.505 Y137.683 E3.06154
G1 X111.868 Y137.251 E3.08714
G1 X111.28 Y136.755 E3.11273
G1 X110.747 Y136.201 E3.13829
G1 X110.274 Y135.594 E3.16389
G1 X109.867 Y134.942 E3.18945
G1 X109.529 Y134.251 E3.21504
G1 X109.265 Y133.528 E3.24064
G1 X109.077 Y132.782 E3.26623
G1 X108.968 Y132.021 E3.2918
G1 X108.962 Y131.858 E3.29722
G1 X108.188 Y131.372 E3.32762
G1 X107.358 Y130.766 E3.3618
G1 X106.858 Y130.307 E3.38437
G1 X105.5 Y128.941 E3.44844
G1 X104.987 Y128.368 E3.47402
G1 X104.49 Y127.674 E3.50241
G1 X103.468 Y126.055 E3.56609
G1 X103.092 Y125.384 E3.59167
G1 X102.738 Y124.54 E3.62211
G1 X102.099 Y122.706 E3.68671
G1 X101.842 Y121.776 E3.7188
G1 X101.806 Y121.556 E3.72621
G1 X101.446 Y121.517 E3.73826
G1 X100.139 Y121.283 E3.78242
G1 X99.789 Y121.223 E3.79423
G1 X98.886 Y121.009 E3.8251
G1 X98.863 Y121.002 E3.8259
G1 X97.85 Y120.611 E3.86201
G1 X96.898 Y120.16 E3.89705
G1 X96.449 Y119.953 E3.91349
G1 X95.768 Y119.595 E3.93908
G1 X95.347 Y119.326 E3.9557
G1 X94.874 Y118.974 E3.97531
G1 X93.7 Y118.025 E4.02552
G1 X92.876 Y117.248 E4.06319
G1 X92.856 Y117.226 E4.06418
G1 X92.369 Y116.631 E4.08975
G1 X92.061 Y116.176 E4.10802
G1 X91.355 Y115.049 E4.15226
G1 X90.981 Y114.377 E4.17784
G1 X90.679 Y113.67 E4.20341
G1 X90.452 Y112.935 E4.22899
G1 X90.302 Y112.181 E4.25456
G1 X90.232 Y111.415 E4.28014
G1 X90.236 Y111.078 E4.29135
G1 X90.141 Y110.932 E4.29715
G1 X89.79 Y110.247 E4.32275
G1 X89.512 Y109.53 E4.34832
G1 X89.375 Y109.061 E4.36458
G1 X89.356 Y108.987 E4.36712
G1 X89.204 Y108.233 E4.3927
G1 X89.131 Y107.468 E4.41826
G1 X89.138 Y106.699 E4.44384
G1 X89.188 Y106.175 E4.46134
G1 X89.302 Y105.315 E4.4902
G1 X89.443 Y104.558 E4.51581
G1 X89.575 Y104.08 E4.5323
G1 X89.923 Y102.966 E4.57112
G1 X90.232 Y102.15 E4.60014
G1 X90.482 Y101.641 E4.619
G1 X91.041 Y100.605 E4.65816
G1 X91.406 Y99.999 E4.68169
G1 X91.789 Y99.475 E4.70327
G1 X92.541 Y98.537 E4.74326
G1 X92.919 Y98.102 E4.76243
G1 X93.522 Y97.525 E4.79018
G0 F6000 X93.262 Y97.221
G1 F1200 X93.77 Y96.787 E4.81241
G1 X94.164 Y96.446 E4.82974
G1 X94.719 Y96.008 E4.85325
G1 X95.509 Y95.507 E4.88437
G1 X96.199 Y95.125 E4.9106
G1 X96.591 Y94.903 E4.92558
G1 X97.254 Y94.568 E4.95029
G1 X98.204 Y94.213 E4.98402
G1 X99.567 Y93.801 E5.03138
G1 X100.333 Y93.61 E5.05764
G1 X101.308 Y93.481 E5.09035
G1 X102.334 Y93.411 E5.12455
G1 X102.716 Y93.382 E5.13729
G1 X103.66 Y93.368 E5.1687
G1 X104.53 Y93.454 E5.19777
G1 X105.985 Y93.681 E5.24675
G1 X107.044 Y93.923 E5.28288
G1 X107.725 Y94.162 E5.30689
G1 X108.779 Y94.588 E5.3447
G1 X108.981 Y94.667 E5.35191
G1 X109.774 Y95.031 E5.38093
G1 X110.575 Y95.513 E5.41203
G1 X111.557 Y96.188 E5.45166
G1 X111.813 Y95.937 E5.46358
G1 X112.43 Y95.444 E5.48985
G1 X113.265 Y94.921 E5.52262
G1 X113.501 Y94.793 E5.53155
G1 X114.214 Y94.452 E5.55784
G1 X114.957 Y94.185 E5.5841
G1 X115.568 Y94.026 E5.6051
G1 X115.831 Y93.969 E5.61405
G1 X116.61 Y93.841 E5.6403
G1 X117.483 Y93.792 E5.66939
G1 X117.535 Y93.792 E5.67112
G1 X118.324 Y93.832 E5.69739
G1 X119.146 Y93.96 E5.72506
G1 X119.397 Y94.013 E5.73359
G1 X120.161 Y94.215 E5.75988
G1 X120.9 Y94.494 E5.78615
G1 X121.812 Y94.964 E5.82027
G1 X122.036 Y95.099 E5.82897
G1 X122.691 Y95.541 E5.85526
G1 X123.298 Y96.046 E5.88152
G1 X123.851 Y96.61 E5.90779
G1 X124.233 Y97.077 E5.92786
G1 X124.499 Y97.429 E5.94253
G1 X124.943 Y98.083 E5.96882
G1 X125.318 Y98.778 E5.99509
G1 X125.538 Y99.286 E6.0135
G1 X125.596 Y99.434 E6.01879
G1 X125.689 Y99.684 E6.02766
G1 X125.845 Y100.126 E6.04325
G1 X126.107 Y101.044 E6.075
G1 X126.12 Y101.103 E6.07701
G1 X126.251 Y101.881 E6.10325
G1 X126.302 Y102.669 E6.12951
G1 X126.295 Y103.13 E6.14485
G1 X126.272 Y103.644 E6.16196
G1 X126.265 Y103.644 E6.16219
G1 X126.24 Y104.138 E6.17865
G1 X126.186 Y104.494 E6.19062
G1 X126.998 Y104.999 E6.22243
G1 X127.646 Y105.45 E6.24869
G1 X128.382 Y106.096 E6.28126
G1 X129.745 Y107.454 E6.34525
G1 X130.276 Y108.039 E6.37153
G1 X130.839 Y108.821 E6.40358
G1 X131.872 Y110.46 E6.46801
G1 X132.258 Y111.149 E6.49428
G1 X132.647 Y112.077 E6.52775
G1 X133.192 Y113.659 E6.5834
G1 X133.24 Y113.792 E6.5881
G1 X133.47 Y114.548 E6.61439
G1 X133.655 Y115.573 E6.64903
G1 X133.869 Y117.486 E6.71305
G1 X133.917 Y118.366 E6.74237
G1 X133.867 Y119.252 E6.77188
G1 X133.651 Y121.142 E6.83515
G1 X133.486 Y122.076 E6.8667
G1 X133.262 Y122.843 E6.89327
G1 X132.627 Y124.669 E6.95757
G1 X132.33 Y125.401 E6.98385
G1 X131.858 Y126.266 E7.01662
G1 X130.833 Y127.892 E7.08055
G1 X130.379 Y128.538 E7.10681
G1 X129.75 Y129.248 E7.13836
G1 X128.386 Y130.612 E7.20252
G1 X127.712 Y131.213 E7.23256
G1 X127.688 Y131.232 E7.23357
G1 X126.989 Y131.725 E7.26202
G1 X126.503 Y132.03 E7.28111
G1 X126.437 Y132.812 E7.30721
G1 X126.29 Y133.588 E7.33348
G1 X126.067 Y134.345 E7.35973
G1 X125.767 Y135.076 E7.38601
G1 X125.396 Y135.772 E7.41224
G1 X124.955 Y136.428 E7.43853
G1 X124.451 Y137.036 E7.4648
G1 X123.888 Y137.589 E7.49104
G1 X123.272 Y138.083 E7.51731
G1 X122.609 Y138.512 E7.54357
G1 X121.906 Y138.872 E7.56984
G1 X121.17 Y139.159 E7.59612
G1 X120.409 Y139.37 E7.62238
G1 X119.631 Y139.503 E7.64863
G1 X118.843 Y139.557 E7.6749
G1 X118.615 Y139.549 E7.68249
G1 X117.947 Y139.621 E7.70484
G1 X117.514 Y139.633 E7.71925
G1 X117.455 Y139.633 E7.72121
G1 X116.666 Y139.593 E7.74748
G1 X115.886 Y139.474 E7.77373
G1 X115.121 Y139.276 E7.80001
G1 X114.67 Y139.119 E7.81589
G1 X114.131 Y138.913 E7.83509
G1 X113.409 Y138.594 E7.86134
G1 X113.05 Y138.426 E7.87452
G1 X112.352 Y138.057 E7.90078
G1 X111.694 Y137.62 E7.92705
G1 X111.084 Y137.118 E7.95333
G1 X110.528 Y136.558 E7.97958
G1 X110.032 Y135.944 E8.00583
G1 X109.6 Y135.282 E8.03212
G1 X109.237 Y134.581 E8.05838
G1 X108.947 Y133.847 E8.08463
G1 X108.733 Y133.086 E8.11092
G1 X108.597 Y132.309 E8.13715
G1 X108.581 Y132.091 E8.14442
G1 X107.975 Y131.71 E8.16823
G1 X107.101 Y131.072 E8.20422
G1 X106.574 Y130.589 E8.228
G1 X105.216 Y129.223 E8.29206
G1 X104.689 Y128.636 E8.3183
G1 X104.152 Y127.888 E8.34893
G1 X103.13 Y126.269 E8.41261
G1 X102.743 Y125.58 E8.43889
G1 X102.36 Y124.671 E8.4717
G1 X101.721 Y122.837 E8.53629
G1 X101.466 Y121.921 E8.56792
G1 X101.375 Y121.911 E8.57096
G1 X100.123 Y121.687 E8.61327
G1 X99.721 Y121.618 E8.62683
G1 X98.77 Y121.392 E8.65934
G1 X98.747 Y121.385 E8.66014
G1 X97.679 Y120.972 E8.69823
G1 X96.727 Y120.521 E8.73327
G1 X96.282 Y120.316 E8.74956
G1 X95.582 Y119.95 E8.77583
G1 X95.121 Y119.656 E8.79402
G1 X94.623 Y119.285 E8.81467
G1 X93.449 Y118.336 E8.86488
G1 X92.86 Y117.809 E8.89117
G1 X92.56 Y117.495 E8.90561
G1 X92.06 Y116.884 E8.93187
G1 X91.722 Y116.389 E8.95181
G1 X91.016 Y115.262 E8.99604
G1 X90.631 Y114.572 E9.02232
G1 X90.318 Y113.847 E9.04859
G1 X90.08 Y113.094 E9.07485
G1 X89.919 Y112.321 E9.10111
G1 X89.837 Y111.536 E9.12737
G1 X89.836 Y111.199 E9.13857
G1 X89.805 Y111.151 E9.14047
G1 X89.442 Y110.449 E9.16676
G1 X89.152 Y109.715 E9.19301
G1 X88.988 Y109.161 E9.21223
G1 X88.969 Y109.087 E9.21477
G1 X88.812 Y108.313 E9.24103
G1 X88.733 Y107.527 E9.26731
G1 X88.735 Y106.737 E9.29358
G1 X88.792 Y106.122 E9.31413
G1 X88.906 Y105.262 E9.34298
G1 X89.049 Y104.485 E9.36926
G1 X89.193 Y103.961 E9.38733
G1 X89.541 Y102.847 E9.42615
G1 X89.866 Y101.987 E9.45673
G1 X90.13 Y101.451 E9.4766
G1 X90.689 Y100.415 E9.51575
G1 X91.073 Y99.777 E9.54052
G1 X91.477 Y99.225 E9.56327
G1 X92.229 Y98.287 E9.60326
G1 X92.627 Y97.829 E9.62344
G1 X93.262 Y97.221 E9.65268
G0 F6000 X93.782 Y97.829
G1 F1200 X94.29 Y97.395 E9.6749
G1 X94.687 Y97.051 E9.69238
G1 X95.188 Y96.656 E9.71359
G1 X95.896 Y96.207 E9.74148
G1 X96.593 Y95.821 E9.76798
G1 X96.985 Y95.599 E9.78296
G1 X97.582 Y95.298 E9.8052
G1 X98.435 Y94.979 E9.83549
G1 X99.8 Y94.566 E9.88292
G1 X100.526 Y94.387 E9.90779
G1 X101.362 Y94.279 E9.93583
G1 X102.435 Y94.206 E9.9716
G1 X102.776 Y94.18 E9.98297
G1 X103.624 Y94.167 E10.01118
G1 X104.407 Y94.245 E10.03735
G1 X105.862 Y94.472 E10.08633
G1 X106.814 Y94.689 E10.11881
G1 X107.425 Y94.904 E10.14035
G1 X108.462 Y95.323 E10.17755
G1 X108.689 Y95.412 E10.18566
G1 X109.403 Y95.739 E10.21178
G1 X110.121 Y96.172 E10.23967
G1 X110.986 Y96.767 E10.27459
G1 X111.188 Y96.903 E10.28269
G1 X111.649 Y97.26 E10.30208
G1 X111.864 Y97.003 E10.31322
G1 X112.403 Y96.484 E10.33811
G1 X112.994 Y96.026 E10.36298
G1 X113.647 Y95.624 E10.38848
G1 X113.883 Y95.496 E10.39741
G1 X114.558 Y95.175 E10.42227
G1 X115.264 Y94.928 E10.44715
G1 X115.737 Y94.808 E10.46338
G1 X116 Y94.751 E10.47233
G1 X116.739 Y94.632 E10.49723
G1 X117.483 Y94.592 E10.52201
G1 X117.535 Y94.592 E10.52374
G1 X118.282 Y94.632 E10.54862
G1 X118.981 Y94.743 E10.57216
G1 X119.232 Y94.796 E10.58069
G1 X119.955 Y94.989 E10.60558
G1 X120.653 Y95.259 E10.63047
G1 X121.399 Y95.65 E10.65849
G1 X121.623 Y95.785 E10.66719
G1 X122.242 Y96.204 E10.69205
G1 X122.813 Y96.688 E10.71694
G1 X123.329 Y97.23 E10.74183
G1 X123.595 Y97.56 E10.75593
G1 X123.861 Y97.912 E10.7706
G1 X124.279 Y98.532 E10.79548
G1 X124.629 Y99.193 E10.82035
G1 X124.793 Y99.578 E10.83427
G1 X124.935 Y99.95 E10.84751
G1 X125.091 Y100.392 E10.8631
G1 X125.326 Y101.216 E10.8916
G1 X125.339 Y101.275 E10.89361
G1 X125.461 Y102.013 E10.91849
G1 X125.496 Y103.094 E10.95446
G1 X125.473 Y103.608 E10.97158
G1 X125.466 Y103.608 E10.97181
G1 X125.44 Y104.096 E10.98806
G1 X125.321 Y104.834 E11.01293
G1 X125.306 Y104.89 E11.01486
G1 X126.575 Y105.679 E11.06456
G1 X127.188 Y106.107 E11.08942
G1 X127.818 Y106.663 E11.11737
G1 X129.181 Y108.021 E11.18136
G1 X129.682 Y108.577 E11.20626
G1 X130.162 Y109.248 E11.2337
G1 X131.195 Y110.887 E11.29813
G1 X131.559 Y111.54 E11.323
G1 X131.891 Y112.337 E11.35171
G1 X132.487 Y114.064 E11.41248
G1 X132.703 Y114.78 E11.43735
G1 X132.86 Y115.662 E11.46715
G1 X133.074 Y117.575 E11.53117
G1 X133.117 Y118.366 E11.55752
G1 X133.072 Y119.161 E11.584
G1 X132.856 Y121.051 E11.64728
G1 X132.708 Y121.89 E11.67561
G1 X132.507 Y122.58 E11.69952
G1 X131.872 Y124.406 E11.76382
G1 X131.589 Y125.099 E11.78871
G1 X131.182 Y125.84 E11.81683
G1 X130.157 Y127.466 E11.88076
G1 X129.724 Y128.076 E11.90564
G1 X129.185 Y128.683 E11.93264
G1 X127.821 Y130.047 E11.9968
G1 X127.216 Y130.585 E12.02373
G1 X127.192 Y130.604 E12.02475
G1 X126.564 Y131.047 E12.05031
G1 X125.697 Y131.59 E12.08433
G1 X125.701 Y132.076 E12.1005
G1 X125.627 Y132.821 E12.1254
G1 X125.474 Y133.553 E12.15027
G1 X125.244 Y134.265 E12.17516
G1 X124.939 Y134.948 E12.20004
G1 X124.563 Y135.594 E12.2249
G1 X124.12 Y136.197 E12.24978
G1 X123.616 Y136.75 E12.27467
G1 X123.055 Y137.245 E12.29955
G1 X122.445 Y137.677 E12.32441
G1 X121.792 Y138.042 E12.34929
G1 X121.103 Y138.335 E12.3742
G1 X120.388 Y138.553 E12.39906
G1 X119.653 Y138.694 E12.42395
G1 X118.907 Y138.755 E12.44885
G1 X118.589 Y138.747 E12.45943
G1 X118.529 Y138.759 E12.46146
G1 X117.514 Y138.833 E12.49531
G1 X117.455 Y138.833 E12.49727
G1 X116.708 Y138.793 E12.52215
G1 X115.97 Y138.674 E12.54702
G1 X114.956 Y138.372 E12.58221
G1 X114.417 Y138.166 E12.6014
G1 X113.733 Y137.862 E12.62629
G1 X113.601 Y137.786 E12.63136
G1 X113.316 Y137.667 E12.64163
G1 X112.659 Y137.309 E12.66652
G1 X112.045 Y136.882 E12.69139
G1 X111.479 Y136.392 E12.71629
G1 X110.969 Y135.845 E12.74117
G1 X110.521 Y135.246 E12.76604
G1 X110.138 Y134.603 E12.79094
G1 X109.827 Y133.923 E12.81581
G1 X109.59 Y133.214 E12.84067
G1 X109.43 Y132.483 E12.86556
G1 X109.349 Y131.739 E12.89045
G1 X109.349 Y131.629 E12.89411
G1 X108.401 Y131.033 E12.93135
G1 X107.616 Y130.46 E12.96368
G1 X107.142 Y130.025 E12.98508
G1 X105.784 Y128.659 E13.04914
G1 X105.285 Y128.101 E13.07404
G1 X104.829 Y127.461 E13.10018
G1 X103.807 Y125.842 E13.16386
G1 X103.442 Y125.189 E13.18874
G1 X103.116 Y124.408 E13.21689
G1 X102.477 Y122.574 E13.28148
G1 X102.233 Y121.694 E13.31185
G1 X102.152 Y121.192 E13.32877
G1 X101.516 Y121.123 E13.35004
G1 X100.259 Y120.898 E13.39252
G1 X99.857 Y120.829 E13.40608
G1 X99.003 Y120.627 E13.43527
G1 X98.98 Y120.62 E13.43607
