;FLAVOR:Marlin
;TIME:3072
;Filament used: 1.35575m
;Layer height: 0.2
;MINX:76.131
;MINY:77.286
;MINZ:0.2
;MAXX:158.58
;MAXY:157.719
;MAXZ:12.8
;Generated with Cura_SteamEngine 4.10.0
M140 S50
M105
M190 S50
M104 S200
M105
M109 S200
M82 ;absolute extrusion mode
; Ender 3 Custom Start G-code
G92 E0 ; Reset Extruder
G28 ; Home all axes
G1 Z2.0 F3000 ; Move Z Axis up little to prevent scratching of Heat Bed
G1 X0.1 Y20 Z0.3 F5000.0 ; Move to start position
G1 X0.1 Y200.0 Z0.3 F1500.0 E15 ; Draw the first line
G1 X0.4 Y200.0 Z0.3 F5000.0 ; Move to side a little
G1 X0.4 Y20 Z0.3 F1500.0 E30 ; Draw the second line
G92 E0 ; Reset Extruder
G1 Z2.0 F3000 ; Move Z Axis up little to prevent scratching of Heat Bed
G1 X5 Y20 Z0.3 F5000.0 ; Move over to prevent blob squish
G92 E0
G92 E0
G1 F2700 E-5
;LAYER_COUNT:64
;LAYER:0
M107
G0 F6000 X80.909 Y94.77 Z0.2
;TYPE:SKIRT
G1 F2700 E0
G1 F1200 X81.622 Y94.189 E0.03059
G1 X82.291 Y93.689 E0.05837
G1 X84.321 Y92.123 E0.14364
G1 X86.285 Y90.521 E0.22794
G1 X88.185 Y88.875 E0.31155
G1 X90.029 Y87.187 E0.3947
G1 X91.86 Y85.412 E0.47952
G1 X93.62 Y83.607 E0.56337
G1 X95.331 Y81.749 E0.64738
G1 X95.65 Y81.386 E0.66345
G1 X95.798 Y81.221 E0.67082
G1 X96.117 Y80.872 E0.68655
G1 X96.778 Y80.207 E0.71773
G1 X97.494 Y79.601 E0.74893
G1 X98.259 Y79.058 E0.78013
G1 X99.068 Y78.583 E0.81134
G1 X99.913 Y78.178 E0.8425
G1 X100.791 Y77.846 E0.87372
G1 X101.693 Y77.591 E0.9049
G1 X102.614 Y77.413 E0.9361
G1 X103.547 Y77.315 E0.9673
G1 X104.159 Y77.293 E0.98767
G1 X105.158 Y77.286 E1.0209
G1 X105.374 Y77.287 E1.02808
G1 X110.217 Y77.349 E1.18917
G1 X110.933 Y77.369 E1.213
G1 X111.869 Y77.435 E1.24421
G1 X112.852 Y77.593 E1.27732
G1 X112.973 Y77.618 E1.28143
G1 X113.451 Y77.728 E1.29774
G1 X113.727 Y77.798 E1.30721
G1 X114.626 Y78.067 E1.33842
G1 X115.498 Y78.411 E1.3696
G1 X116.338 Y78.829 E1.40081
G1 X117.139 Y79.317 E1.43201
G1 X117.895 Y79.871 E1.46318
G1 X118.602 Y80.488 E1.49439
G1 X119.323 Y81.241 E1.52906
G1 X121.035 Y83.209 E1.61582
G1 X122.741 Y85.064 E1.69964
G1 X124.501 Y86.869 E1.78349
G1 X126.298 Y88.613 E1.86678
G1 X128.164 Y90.324 E1.95099
G1 X130.081 Y91.984 E2.03533
G1 X130.548 Y92.37 E2.05548
G1 X130.91 Y92.679 E2.07131
G1 X131.139 Y92.882 E2.08149
G1 X131.46 Y93.175 E2.09594
G1 X133.397 Y94.891 E2.18201
G1 X135.34 Y96.519 E2.26632
G1 X137.299 Y98.067 E2.34937
G1 X139.314 Y99.568 E2.43294
G1 X141.385 Y101.022 E2.5171
G1 X143.506 Y102.424 E2.60166
G1 X145.603 Y103.725 E2.68374
G1 X147.804 Y105.006 E2.76845
G1 X150.031 Y106.221 E2.85282
G1 X151.937 Y107.197 E2.92404
G1 X152.463 Y107.484 E2.94397
G1 X152.777 Y107.667 E2.95606
G1 X153.4 Y108.059 E2.98054
G1 X153.749 Y108.295 E2.99456
G1 X154.503 Y108.853 E3.02575
G1 X155.206 Y109.473 E3.05693
G1 X155.854 Y110.151 E3.08812
G1 X156.442 Y110.881 E3.1193
G1 X156.966 Y111.66 E3.15053
G1 X157.422 Y112.479 E3.1817
G1 X157.806 Y113.335 E3.21291
G1 X158.115 Y114.22 E3.24409
G1 X158.348 Y115.129 E3.2753
G1 X158.503 Y116.054 E3.30649
G1 X158.579 Y116.988 E3.33766
G1 X158.58 Y117.798 E3.3646
G1 X158.573 Y117.995 E3.37116
G1 X158.5 Y118.93 E3.40235
G1 X158.347 Y119.855 E3.43353
G1 X158.116 Y120.764 E3.46473
G1 X157.809 Y121.65 E3.49591
G1 X157.427 Y122.507 E3.52712
G1 X156.974 Y123.328 E3.55831
G1 X156.452 Y124.107 E3.5895
G1 X155.866 Y124.839 E3.62069
G1 X155.219 Y125.519 E3.6519
G1 X154.517 Y126.141 E3.6831
G1 X153.987 Y126.545 E3.70526
G1 X153.8 Y126.679 E3.71292
G1 X153.306 Y127.013 E3.73275
G1 X153.066 Y127.166 E3.74222
G1 X152.238 Y127.645 E3.77403
G1 X151.492 Y128.033 E3.802
G1 X150.354 Y128.606 E3.84438
G1 X148.14 Y129.801 E3.92806
G1 X145.974 Y131.05 E4.01122
G1 X143.798 Y132.388 E4.09618
G1 X141.708 Y133.756 E4.17926
G1 X139.656 Y135.185 E4.26243
G1 X137.62 Y136.69 E4.34664
G1 X135.643 Y138.238 E4.43015
G1 X133.687 Y139.862 E4.51471
G1 X131.689 Y141.619 E4.6032
G1 X131.119 Y142.136 E4.6288
G1 X130.89 Y142.339 E4.63898
G1 X130.058 Y143.05 E4.67538
G1 X129.563 Y143.461 E4.69678
G1 X127.694 Y145.104 E4.77954
G1 X125.848 Y146.82 E4.86337
G1 X124.049 Y148.591 E4.94734
G1 X122.31 Y150.401 E5.03082
G1 X120.623 Y152.261 E5.11434
G1 X119.957 Y153.038 E5.14838
G1 X119.3 Y153.787 E5.18151
G1 X118.652 Y154.465 E5.21271
G1 X117.949 Y155.085 E5.24388
G1 X117.195 Y155.643 E5.27508
G1 X116.397 Y156.135 E5.30626
G1 X115.56 Y156.558 E5.33745
G1 X114.689 Y156.907 E5.36866
G1 X113.731 Y157.197 E5.40195
G1 X113.336 Y157.297 E5.41551
G1 X112.417 Y157.488 E5.44673
G1 X111.282 Y157.614 E5.48471
G1 X111.112 Y157.624 E5.49037
G1 X110.729 Y157.64 E5.50312
G1 X110.275 Y157.65 E5.51822
G1 X105.045 Y157.718 E5.69219
G1 X104.855 Y157.719 E5.69851
G1 X104.148 Y157.716 E5.72202
G1 X103.211 Y157.672 E5.75322
G1 X102.282 Y157.548 E5.7844
G1 X101.366 Y157.346 E5.81559
G1 X100.471 Y157.066 E5.84679
G1 X99.603 Y156.712 E5.87796
G1 X98.768 Y156.284 E5.90917
G1 X97.973 Y155.787 E5.94036
G1 X97.223 Y155.224 E5.97155
G1 X96.523 Y154.599 E6.00276
G1 X95.893 Y153.932 E6.03327
G1 X94.133 Y151.978 E6.12074
G1 X92.388 Y150.151 E6.20477
G1 X90.585 Y148.367 E6.28913
G1 X88.783 Y146.681 E6.37121
G1 X86.869 Y144.991 E6.45614
G1 X84.931 Y143.375 E6.54006
G1 X82.233 Y141.27 E6.65388
G1 X81.59 Y140.786 E6.68065
G1 X80.865 Y140.19 E6.71186
G1 X80.194 Y139.535 E6.74305
G1 X79.581 Y138.825 E6.77425
G1 X79.031 Y138.066 E6.80542
G1 X78.728 Y137.581 E6.82444
G1 X78.547 Y137.265 E6.83656
G1 X78.199 Y136.633 E6.86055
G1 X77.698 Y135.692 E6.89601
G1 X77.365 Y135.05 E6.92007
G1 X76.969 Y134.2 E6.95125
G1 X76.647 Y133.319 E6.98245
G1 X76.401 Y132.414 E7.01364
G1 X76.234 Y131.491 E7.04484
G1 X76.145 Y130.557 E7.07605
G1 X76.131 Y129.87 E7.0989
G1 X76.133 Y129.679 E7.10526
G1 X76.158 Y129.04 E7.12652
G1 X76.219 Y128.166 E7.15566
G1 X76.308 Y127.11 E7.19091
G1 X76.447 Y124.615 E7.27402
G1 X76.516 Y122.078 E7.35844
G1 X76.52 Y120.071 E7.42519
G1 X76.528 Y119.03 E7.45981
G1 X76.53 Y117.939 E7.4961
G1 X76.525 Y117.541 E7.50934
G1 X76.533 Y116.875 E7.53149
G1 X76.525 Y115.34 E7.58255
G1 X76.521 Y114.789 E7.60087
G1 X76.527 Y113.883 E7.63101
G1 X76.525 Y113.597 E7.64052
G1 X76.47 Y110.991 E7.72722
G1 X76.347 Y108.479 E7.81087
G1 X76.17 Y106.183 E7.88746
G1 X76.143 Y105.656 E7.90501
G1 X76.134 Y105.344 E7.91539
G1 X76.147 Y104.406 E7.94659
G1 X76.239 Y103.473 E7.97777
G1 X76.411 Y102.551 E8.00897
G1 X76.661 Y101.647 E8.04016
G1 X76.987 Y100.768 E8.07135
G1 X77.26 Y100.169 E8.09324
G1 X77.462 Y99.763 E8.10832
G1 X77.666 Y99.373 E8.12296
G1 X78.222 Y98.333 E8.16219
G1 X78.578 Y97.687 E8.18672
G1 X79.065 Y96.886 E8.2179
G1 X79.619 Y96.129 E8.2491
G1 X80.235 Y95.422 E8.28029
G1 X80.909 Y94.77 E8.31148
G0 F6000 X81.226 Y95.024
G1 F1200 X81.861 Y94.509 E8.33867
G1 X82.523 Y94.013 E8.36618
G1 X84.595 Y92.416 E8.45319
G1 X86.534 Y90.834 E8.53642
G1 X88.454 Y89.171 E8.62091
G1 X90.312 Y87.47 E8.70469
G1 X92.124 Y85.713 E8.78864
G1 X93.917 Y83.874 E8.87406
G1 X95.622 Y82.023 E8.95777
G1 X96.093 Y81.49 E8.98142
G1 X96.412 Y81.141 E8.99715
G1 X97.062 Y80.49 E9.02775
G1 X97.766 Y79.896 E9.05838
G1 X98.519 Y79.367 E9.08899
G1 X99.315 Y78.904 E9.11962
G1 X100.149 Y78.513 E9.15026
G1 X101.013 Y78.195 E9.18088
G1 X101.901 Y77.953 E9.21149
G1 X102.807 Y77.79 E9.24211
G1 X104.162 Y77.693 E9.28729
G1 X105.161 Y77.686 E9.32052
G1 X105.369 Y77.687 E9.32744
G1 X110.206 Y77.749 E9.48833
G1 X110.922 Y77.769 E9.51215
G1 X111.84 Y77.835 E9.54276
G1 X112.771 Y77.984 E9.57412
G1 X112.892 Y78.009 E9.57823
G1 X113.353 Y78.115 E9.59396
G1 X113.629 Y78.185 E9.60344
G1 X114.511 Y78.45 E9.63407
G1 X115.366 Y78.791 E9.66468
G1 X116.189 Y79.204 E9.69531
G1 X116.972 Y79.687 E9.72591
G1 X117.711 Y80.236 E9.75653
G1 X118.4 Y80.848 E9.78718
G1 X119.021 Y81.503 E9.8172
G1 X120.737 Y83.476 E9.90417
G1 X122.46 Y85.349 E9.98881
G1 X124.201 Y87.135 E10.07177
G1 X126.05 Y88.929 E10.15746
G1 X127.878 Y90.605 E10.23994
G1 X129.824 Y92.29 E10.32556
G1 X130.293 Y92.678 E10.3458
G1 X130.649 Y92.982 E10.36138
G1 X130.87 Y93.178 E10.3712
G1 X131.208 Y93.487 E10.38643
G1 X133.12 Y95.181 E10.47139
G1 X135.099 Y96.838 E10.55724
G1 X137.036 Y98.368 E10.63934
G1 X139.091 Y99.9 E10.72459
G1 X141.164 Y101.356 E10.80885
G1 X143.272 Y102.748 E10.89287
G1 X145.422 Y104.083 E10.97704
G1 X147.59 Y105.345 E11.06048
G1 X149.852 Y106.579 E11.14618
G1 X151.755 Y107.553 E11.21728
G1 X152.261 Y107.83 E11.23647
G1 X152.575 Y108.013 E11.24855
G1 X153.176 Y108.39 E11.27215
G1 X153.525 Y108.626 E11.28616
G1 X154.264 Y109.175 E11.31678
G1 X154.953 Y109.785 E11.34739
G1 X155.587 Y110.453 E11.37802
G1 X156.16 Y111.173 E11.40863
G1 X156.669 Y111.941 E11.43927
G1 X157.109 Y112.749 E11.46987
G1 X157.477 Y113.593 E11.5005
G1 X157.771 Y114.466 E11.53113
G1 X157.988 Y115.361 E11.56177
G1 X158.126 Y116.271 E11.59238
G1 X158.185 Y117.19 E11.62301
G1 X158.18 Y117.783 E11.64273
G1 X158.173 Y117.98 E11.64929
G1 X158.101 Y118.898 E11.67991
G1 X157.949 Y119.806 E11.71053
G1 X157.719 Y120.698 E11.74117
G1 X157.412 Y121.566 E11.7718
G1 X157.031 Y122.404 E11.80241
G1 X156.579 Y123.206 E11.83303
G1 X156.059 Y123.966 E11.86366
G1 X155.475 Y124.677 E11.89426
G1 X154.831 Y125.336 E11.92491
G1 X154.133 Y125.936 E11.95552
G1 X153.754 Y126.22 E11.97128
G1 X153.567 Y126.354 E11.97893
G1 X153.091 Y126.676 E11.99804
G1 X152.851 Y126.829 E12.00751
G1 X152.054 Y127.29 E12.03813
G1 X151.312 Y127.676 E12.06595
G1 X150.178 Y128.247 E12.10818
G1 X147.942 Y129.454 E12.19269
G1 X145.744 Y130.722 E12.27709
G1 X143.617 Y132.03 E12.36014
G1 X141.482 Y133.426 E12.44498
G1 X139.395 Y134.88 E12.52958
G1 X137.381 Y136.368 E12.61287
G1 X135.386 Y137.931 E12.69716
G1 X133.45 Y139.538 E12.78085
G1 X131.439 Y141.307 E12.86993
G1 X130.851 Y141.84 E12.89632
G1 X130.629 Y142.035 E12.90615
G1 X129.802 Y142.742 E12.94234
G1 X129.326 Y143.137 E12.96291
G1 X127.421 Y144.811 E13.04726
G1 X125.56 Y146.541 E13.13177
G1 X123.78 Y148.294 E13.21486
G1 X122.009 Y150.138 E13.2999
G1 X120.321 Y151.998 E13.38344
G1 X119.657 Y152.774 E13.41741
G1 X119 Y153.523 E13.45055
G1 X118.363 Y154.188 E13.48118
G1 X117.671 Y154.795 E13.51179
G1 X116.929 Y155.34 E13.54241
G1 X116.143 Y155.819 E13.57303
G1 X115.318 Y156.228 E13.60365
G1 X114.46 Y156.563 E13.63429
G1 X113.632 Y156.809 E13.66302
G1 X113.237 Y156.909 E13.67657
G1 X112.336 Y157.096 E13.70718
G1 X111.258 Y157.215 E13.74325
G1 X111.088 Y157.225 E13.74891
G1 X110.72 Y157.24 E13.76116
G1 X110.27 Y157.25 E13.77613
G1 X104.857 Y157.319 E13.95618
G1 X104.15 Y157.316 E13.9797
G1 X103.23 Y157.272 E14.01033
G1 X102.318 Y157.149 E14.04094
G1 X101.42 Y156.946 E14.07156
G1 X100.543 Y156.667 E14.10217
G1 X99.693 Y156.312 E14.13281
G1 X98.877 Y155.886 E14.16343
G1 X98.102 Y155.39 E14.19403
G1 X97.372 Y154.828 E14.22467
G1 X96.694 Y154.206 E14.25527
G1 X96.195 Y153.67 E14.27963
G1 X96.129 Y153.594 E14.28298
G1 X94.436 Y151.717 E14.36705
G1 X92.676 Y149.874 E14.45181
G1 X90.857 Y148.074 E14.53693
G1 X89.038 Y146.373 E14.61976
G1 X87.115 Y144.674 E14.7051
G1 X85.217 Y143.091 E14.78731
G1 X82.461 Y140.941 E14.90356
G1 X81.83 Y140.466 E14.92983
G1 X81.12 Y139.881 E14.96043
G1 X80.462 Y139.236 E14.99108
G1 X79.863 Y138.537 E15.0217
G1 X79.1 Y137.423 E15.0666
G1 X78.897 Y137.072 E15.08009
G1 X78.552 Y136.444 E15.10392
G1 X78.053 Y135.508 E15.1392
G1 X77.72 Y134.866 E15.16326
G1 X77.332 Y134.031 E15.19388
G1 X77.018 Y133.165 E15.22452
G1 X76.781 Y132.276 E15.25512
G1 X76.621 Y131.369 E15.28575
G1 X76.54 Y130.452 E15.31637
G1 X76.531 Y129.874 E15.3356
G1 X76.533 Y129.683 E15.34195
G1 X76.557 Y129.068 E15.36242
G1 X76.618 Y128.2 E15.39136
G1 X76.706 Y127.165 E15.42591
G1 X76.847 Y124.615 E15.51085
G1 X76.916 Y122.089 E15.5949
G1 X76.92 Y120.075 E15.66189
G1 X76.928 Y119.034 E15.69651
G1 X76.93 Y117.667 E15.74198
G1 X76.925 Y117.546 E15.746
G1 X76.933 Y116.878 E15.76822
G1 X76.925 Y115.338 E15.81945
G1 X76.921 Y114.792 E15.83761
G1 X76.927 Y113.883 E15.86784
G1 X76.925 Y113.587 E15.87769
G1 X76.87 Y110.962 E15.96501
G1 X76.747 Y108.465 E16.04816
G1 X76.569 Y106.152 E16.12532
G1 X76.542 Y105.645 E16.14221
G1 X76.533 Y105.333 E16.15259
G1 X76.547 Y104.412 E16.18323
G1 X76.64 Y103.496 E16.21385
G1 X76.813 Y102.592 E16.24446
G1 X77.063 Y101.706 E16.27508
G1 X77.389 Y100.845 E16.3057
G1 X77.619 Y100.346 E16.32398
G1 X77.817 Y99.948 E16.33876
G1 X78.019 Y99.561 E16.35328
G1 X78.572 Y98.526 E16.39231
G1 X78.928 Y97.88 E16.41684
G1 X79.407 Y97.094 E16.44746
G1 X79.953 Y96.352 E16.4781
G1 X80.56 Y95.66 E16.50871
G1 X81.226 Y95.024 E16.53934
G0 F6000 X81.541 Y95.28
G1 F1200 X82.101 Y94.829 E16.56326
G1 X82.767 Y94.331 E16.59092
G1 X84.846 Y92.728 E16.67823
G1 X86.803 Y91.131 E16.76225
G1 X88.702 Y89.486 E16.84581
G1 X90.596 Y87.752 E16.93122
G1 X92.424 Y85.98 E17.01589
G1 X94.181 Y84.178 E17.0996
G1 X95.934 Y82.275 E17.18566
G1 X96.388 Y81.76 E17.20849
G1 X96.707 Y81.411 E17.22422
G1 X97.345 Y80.772 E17.25425
G1 X98.038 Y80.192 E17.28431
G1 X98.778 Y79.676 E17.31431
G1 X99.562 Y79.227 E17.34436
G1 X100.382 Y78.849 E17.3744
G1 X101.233 Y78.545 E17.40445
G1 X102.107 Y78.318 E17.43449
G1 X102.997 Y78.168 E17.4645
G1 X104.165 Y78.093 E17.50343
G1 X105.164 Y78.086 E17.53666
G1 X105.364 Y78.087 E17.54331
G1 X110.195 Y78.149 E17.70401
G1 X110.911 Y78.169 E17.72783
G1 X111.812 Y78.234 E17.75787
G1 X112.69 Y78.376 E17.78746
G1 X112.811 Y78.401 E17.79157
G1 X113.255 Y78.503 E17.80672
G1 X113.531 Y78.573 E17.81619
G1 X114.395 Y78.834 E17.84621
G1 X115.234 Y79.17 E17.87627
G1 X116.039 Y79.578 E17.90628
G1 X116.805 Y80.057 E17.93633
G1 X117.525 Y80.601 E17.96635
G1 X118.195 Y81.207 E17.99639
G1 X118.719 Y81.766 E18.02188
G1 X120.442 Y83.746 E18.10918
G1 X122.145 Y85.598 E18.19286
G1 X123.937 Y87.436 E18.27824
G1 X125.766 Y89.211 E18.36301
G1 X127.612 Y90.904 E18.44632
G1 X129.564 Y92.594 E18.53219
G1 X130.038 Y92.986 E18.55265
G1 X130.388 Y93.285 E18.56796
G1 X130.6 Y93.473 E18.57738
G1 X130.922 Y93.767 E18.59189
G1 X132.883 Y95.504 E18.67902
G1 X134.839 Y97.143 E18.76389
G1 X136.794 Y98.688 E18.84677
G1 X138.868 Y100.233 E18.93279
G1 X140.935 Y101.685 E19.01681
G1 X143.045 Y103.078 E19.1009
G1 X145.216 Y104.426 E19.18589
G1 X147.392 Y105.692 E19.26963
G1 X149.672 Y106.936 E19.35601
G1 X151.572 Y107.909 E19.42701
G1 X152.06 Y108.175 E19.4455
G1 X152.374 Y108.358 E19.45758
G1 X152.952 Y108.722 E19.4803
G1 X153.301 Y108.958 E19.49432
G1 X154.026 Y109.496 E19.52434
G1 X154.7 Y110.097 E19.55438
G1 X155.319 Y110.754 E19.5844
G1 X155.877 Y111.464 E19.61444
G1 X156.37 Y112.221 E19.64448
G1 X156.795 Y113.018 E19.67452
G1 X157.147 Y113.85 E19.70457
G1 X157.424 Y114.709 E19.73459
G1 X157.624 Y115.59 E19.76464
G1 X157.745 Y116.485 E19.79468
G1 X157.781 Y117.769 E19.8374
G1 X157.774 Y117.966 E19.84396
G1 X157.702 Y118.866 E19.87399
G1 X157.55 Y119.757 E19.90405
G1 X157.321 Y120.63 E19.93407
G1 X157.015 Y121.48 E19.96412
G1 X156.635 Y122.299 E19.99414
G1 X156.184 Y123.082 E20.0242
G1 X155.666 Y123.821 E20.05421
G1 X155.084 Y124.512 E20.08426
G1 X154.444 Y125.149 E20.1143
G1 X153.521 Y125.895 E20.15377
G1 X153.334 Y126.029 E20.16142
G1 X152.876 Y126.339 E20.17981
G1 X152.636 Y126.492 E20.18928
G1 X151.869 Y126.935 E20.21874
G1 X151.132 Y127.318 E20.24637
G1 X150.014 Y127.881 E20.288
G1 X147.731 Y129.113 E20.37428
G1 X145.556 Y130.368 E20.4578
G1 X143.394 Y131.697 E20.54221
G1 X141.264 Y133.09 E20.62686
G1 X139.168 Y134.55 E20.71182
G1 X137.142 Y136.047 E20.7956
G1 X135.13 Y137.624 E20.88063
G1 X133.197 Y139.229 E20.96419
G1 X131.118 Y141.058 E21.05629
G1 X130.582 Y141.543 E21.08033
G1 X130.369 Y141.731 E21.08978
G1 X129.547 Y142.434 E21.12576
G1 X129.053 Y142.844 E21.14711
G1 X127.15 Y144.517 E21.23139
G1 X125.289 Y146.246 E21.31587
G1 X123.493 Y148.014 E21.3997
G1 X121.725 Y149.856 E21.48462
G1 X120.02 Y151.735 E21.56901
G1 X119.356 Y152.51 E21.60295
G1 X118.699 Y153.259 E21.63609
G1 X118.074 Y153.911 E21.66613
G1 X117.394 Y154.505 E21.69616
G1 X116.664 Y155.037 E21.7262
G1 X115.889 Y155.502 E21.75626
G1 X115.077 Y155.896 E21.78628
G1 X114.233 Y156.217 E21.81631
G1 X113.534 Y156.421 E21.84053
G1 X113.139 Y156.521 E21.85408
G1 X112.255 Y156.704 E21.88411
G1 X111.235 Y156.815 E21.91824
G1 X111.065 Y156.825 E21.9239
G1 X110.71 Y156.84 E21.93572
G1 X110.265 Y156.85 E21.95052
G1 X104.859 Y156.919 E22.13034
G1 X104.152 Y156.916 E22.15386
