;FLAVOR:Marlin
;TIME:1323
;Filament used: 0.60511m
;Layer height: 0.2
;MINX:96.516
;MINY:96.518
;MINZ:0.2
;MAXX:138.484
;MAXY:138.48
;MAXZ:18.6
;Generated with Cura_SteamEngine 4.8.0
M140 S50
M105
M190 S50
M104 S200
M105
M109 S200
M82 ;absolute extrusion mode
; Ender 3 Custom Start G-code
G92 E0 ; Reset Extruder
G28 ; Home all axes
G1 Z2.0 F3000 ; Move Z Axis up little to prevent scratching of Heat Bed
G1 X0.1 Y20 Z0.3 F5000.0 ; Move to start position
G1 X0.1 Y200.0 Z0.3 F1500.0 E15 ; Draw the first line
G1 X0.4 Y200.0 Z0.3 F5000.0 ; Move to side a little
G1 X0.4 Y20 Z0.3 F1500.0 E30 ; Draw the second line
G92 E0 ; Reset Extruder
G1 Z2.0 F3000 ; Move Z Axis up little to prevent scratching of Heat Bed
G1 X5 Y20 Z0.3 F5000.0 ; Move over to prevent blob squish
G92 E0
G92 E0
G1 F2700 E-5
;LAYER_COUNT:93
;LAYER:0
M107
G0 F6000 X102.69 Y102.635 Z0.2
;TYPE:SKIRT
G1 F2700 E0
G1 F1200 X102.923 Y102.407 E0.01084
G1 X103.197 Y102.147 E0.02341
G1 X103.509 Y101.862 E0.03746
G1 X103.817 Y101.591 E0.05111
G1 X104.092 Y101.358 E0.06309
G1 X104.432 Y101.082 E0.07766
G1 X104.706 Y100.868 E0.08922
G1 X104.995 Y100.65 E0.10126
G1 X105.261 Y100.456 E0.11221
G1 X105.612 Y100.21 E0.12647
G1 X106.05 Y99.916 E0.14401
G1 X106.366 Y99.712 E0.15652
G1 X106.48 Y99.641 E0.16099
G1 X106.858 Y99.416 E0.17562
G1 X107.317 Y99.155 E0.19318
G1 X107.667 Y98.964 E0.20645
G1 X108.062 Y98.758 E0.22126
G1 X108.483 Y98.55 E0.23688
G1 X108.893 Y98.363 E0.25187
G1 X109.397 Y98.145 E0.27013
G1 X109.804 Y97.979 E0.28475
G1 X110.102 Y97.864 E0.29538
G1 X110.467 Y97.73 E0.30831
G1 X110.788 Y97.619 E0.31961
G1 X111.194 Y97.488 E0.3338
G1 X111.633 Y97.355 E0.34905
G1 X111.979 Y97.256 E0.36102
G1 X112.293 Y97.172 E0.37183
G1 X112.738 Y97.063 E0.38707
G1 X113.029 Y96.998 E0.39699
G1 X113.397 Y96.922 E0.40949
G1 X113.871 Y96.833 E0.42553
G1 X114.293 Y96.762 E0.43976
G1 X114.557 Y96.723 E0.44864
G1 X114.926 Y96.675 E0.46101
G1 X115.323 Y96.63 E0.4743
G1 X115.759 Y96.589 E0.48887
G1 X116.21 Y96.556 E0.50391
G1 X116.617 Y96.534 E0.51746
G1 X116.867 Y96.525 E0.52578
G1 X117.263 Y96.518 E0.53896
G1 X117.736 Y96.518 E0.55469
G1 X118.129 Y96.525 E0.56776
G1 X118.381 Y96.534 E0.57615
G1 X118.794 Y96.557 E0.58991
G1 X119.243 Y96.59 E0.60488
G1 X119.67 Y96.629 E0.61914
G1 X120.069 Y96.674 E0.6325
G1 X120.456 Y96.725 E0.64548
G1 X120.718 Y96.764 E0.65429
G1 X121.124 Y96.832 E0.66798
G1 X121.599 Y96.921 E0.68406
G1 X121.936 Y96.99 E0.6955
G1 X122.227 Y97.054 E0.70541
G1 X122.73 Y97.177 E0.72263
G1 X123.045 Y97.262 E0.73348
G1 X123.382 Y97.359 E0.74514
G1 X123.819 Y97.492 E0.76034
G1 X124.201 Y97.616 E0.7737
G1 X124.523 Y97.727 E0.78502
G1 X124.898 Y97.864 E0.7983
G1 X125.196 Y97.979 E0.80893
G1 X125.603 Y98.145 E0.82355
G1 X126.107 Y98.363 E0.84181
G1 X126.517 Y98.55 E0.8568
G1 X126.928 Y98.753 E0.87204
G1 X127.322 Y98.958 E0.88682
G1 X127.698 Y99.163 E0.90106
G1 X128.157 Y99.425 E0.91864
G1 X128.483 Y99.618 E0.93124
G1 X128.598 Y99.689 E0.93573
G1 X128.945 Y99.913 E0.94947
G1 X129.382 Y100.206 E0.96697
G1 X129.744 Y100.459 E0.98166
G1 X130.011 Y100.654 E0.99266
G1 X130.29 Y100.864 E1.00427
G1 X130.563 Y101.077 E1.01579
G1 X130.925 Y101.372 E1.03132
G1 X131.2 Y101.606 E1.04333
G1 X131.463 Y101.838 E1.05499
G1 X131.776 Y102.122 E1.06905
G1 X132.111 Y102.439 E1.08439
G1 X132.343 Y102.668 E1.09523
G1 X132.596 Y102.927 E1.10728
G1 X132.873 Y103.219 E1.12066
G1 X133.159 Y103.532 E1.13476
G1 X133.346 Y103.745 E1.14419
G1 X133.607 Y104.053 E1.15762
G1 X133.902 Y104.415 E1.17315
G1 X134.146 Y104.726 E1.1863
G1 X134.37 Y105.022 E1.19864
G1 X134.631 Y105.381 E1.21341
G1 X134.793 Y105.614 E1.22285
G1 X134.986 Y105.901 E1.23435
G1 X135.227 Y106.272 E1.24906
G1 X135.49 Y106.699 E1.26574
G1 X135.656 Y106.982 E1.27666
G1 X135.809 Y107.25 E1.28692
G1 X135.987 Y107.574 E1.29922
G1 X136.179 Y107.941 E1.31299
G1 X136.358 Y108.298 E1.32627
G1 X136.56 Y108.722 E1.3419
G1 X136.732 Y109.105 E1.35586
G1 X136.874 Y109.436 E1.36784
G1 X136.97 Y109.67 E1.37625
G1 X137.119 Y110.053 E1.38992
G1 X137.249 Y110.407 E1.40246
G1 X137.383 Y110.794 E1.41608
G1 X137.537 Y111.267 E1.43263
G1 X137.674 Y111.722 E1.44843
G1 X137.728 Y111.916 E1.45513
G1 X137.816 Y112.254 E1.46675
G1 X137.938 Y112.753 E1.48383
G1 X138.02 Y113.114 E1.49615
G1 X138.071 Y113.358 E1.50444
G1 X138.152 Y113.79 E1.51906
G1 X138.232 Y114.267 E1.53514
G1 X138.293 Y114.674 E1.54883
G1 X138.333 Y114.983 E1.55919
G1 X138.375 Y115.358 E1.57174
G1 X138.398 Y115.601 E1.57986
G1 X138.43 Y116.027 E1.59407
G1 X138.464 Y116.638 E1.61442
G1 X138.48 Y117.074 E1.62894
G1 X138.484 Y117.325 E1.63729
G1 X138.484 Y117.677 E1.64899
G1 X138.48 Y117.926 E1.65728
G1 X138.464 Y118.36 E1.67172
G1 X138.43 Y118.971 E1.69207
G1 X138.399 Y119.388 E1.70598
G1 X138.376 Y119.633 E1.71417
G1 X138.333 Y120.017 E1.72702
G1 X138.293 Y120.326 E1.73738
G1 X138.232 Y120.733 E1.75107
G1 X138.152 Y121.21 E1.76716
G1 X138.08 Y121.599 E1.78031
G1 X138.03 Y121.843 E1.7886
G1 X137.934 Y122.268 E1.80309
G1 X137.811 Y122.767 E1.82018
G1 X137.714 Y123.134 E1.83281
G1 X137.659 Y123.328 E1.83952
G1 X137.542 Y123.713 E1.8529
G1 X137.389 Y124.186 E1.86943
G1 X137.242 Y124.612 E1.88442
G1 X137.112 Y124.964 E1.8969
G1 X136.982 Y125.298 E1.90882
G1 X136.886 Y125.534 E1.9173
G1 X136.716 Y125.929 E1.9316
G1 X136.542 Y126.313 E1.94562
G1 X136.373 Y126.67 E1.95876
G1 X136.196 Y127.026 E1.97198
G1 X136.012 Y127.38 E1.98525
G1 X135.836 Y127.704 E1.99752
G1 X135.629 Y128.068 E2.01144
G1 X135.461 Y128.351 E2.02239
G1 X135.242 Y128.705 E2.03623
G1 X135.003 Y129.075 E2.05088
G1 X134.758 Y129.437 E2.06542
G1 X134.594 Y129.67 E2.0749
G1 X134.399 Y129.939 E2.08595
G1 X134.186 Y130.223 E2.09776
G1 X133.909 Y130.577 E2.11271
G1 X133.603 Y130.952 E2.12881
G1 X133.312 Y131.294 E2.14374
G1 X133.125 Y131.505 E2.15312
G1 X132.901 Y131.751 E2.16418
G1 X132.626 Y132.043 E2.17753
G1 X132.312 Y132.362 E2.19241
G1 X132.077 Y132.592 E2.20335
G1 X131.802 Y132.853 E2.21596
G1 X131.49 Y133.138 E2.23002
G1 X131.194 Y133.398 E2.24312
G1 X130.921 Y133.63 E2.25503
G1 X130.59 Y133.901 E2.26926
G1 X130.325 Y134.109 E2.28047
G1 X130.003 Y134.352 E2.29388
G1 X129.728 Y134.552 E2.30519
G1 X129.393 Y134.786 E2.31879
G1 X128.954 Y135.081 E2.33638
G1 X128.634 Y135.288 E2.34905
G1 X128.52 Y135.359 E2.35352
G1 X128.149 Y135.58 E2.36788
G1 X127.689 Y135.842 E2.38549
G1 X127.332 Y136.037 E2.39902
G1 X126.939 Y136.242 E2.41376
G1 X126.484 Y136.466 E2.43063
G1 X126.097 Y136.641 E2.44476
G1 X125.594 Y136.858 E2.46298
G1 X125.216 Y137.013 E2.47657
G1 X124.917 Y137.129 E2.48723
G1 X124.533 Y137.27 E2.50084
G1 X124.212 Y137.381 E2.51214
G1 X123.813 Y137.51 E2.52608
G1 X123.375 Y137.643 E2.54131
G1 X122.99 Y137.753 E2.55462
G1 X122.676 Y137.836 E2.56543
G1 X122.29 Y137.93 E2.57864
G1 X121.998 Y137.996 E2.5886
G1 X121.603 Y138.078 E2.60202
G1 X121.129 Y138.167 E2.61806
G1 X120.744 Y138.232 E2.63104
G1 X120.506 Y138.268 E2.63905
G1 X120.076 Y138.325 E2.65348
G1 X119.635 Y138.374 E2.66823
G1 X119.204 Y138.413 E2.68263
G1 X118.686 Y138.45 E2.6999
G1 X118.188 Y138.474 E2.71648
G1 X117.824 Y138.48 E2.72859
G1 X117.081 Y138.479 E2.7533
G1 X116.287 Y138.449 E2.77973
G1 X115.758 Y138.41 E2.79737
G1 X115.343 Y138.372 E2.81123
G1 X114.941 Y138.327 E2.82469
G1 X114.557 Y138.277 E2.83757
G1 X114.293 Y138.238 E2.84644
G1 X113.871 Y138.167 E2.86068
G1 X113.397 Y138.078 E2.87672
G1 X113.029 Y138.002 E2.88922
G1 X112.738 Y137.937 E2.89913
G1 X112.279 Y137.824 E2.91485
G1 X111.963 Y137.739 E2.92574
G1 X111.639 Y137.647 E2.93694
G1 X111.202 Y137.515 E2.95212
G1 X110.788 Y137.381 E2.9666
G1 X110.467 Y137.27 E2.97789
G1 X110.102 Y137.136 E2.99083
G1 X109.804 Y137.021 E3.00145
G1 X109.388 Y136.851 E3.0164
G1 X108.883 Y136.632 E3.0347
G1 X108.522 Y136.469 E3.04788
G1 X108.082 Y136.252 E3.0642
G1 X107.687 Y136.047 E3.079
G1 X107.301 Y135.837 E3.09361
G1 X106.842 Y135.575 E3.11119
G1 X106.48 Y135.359 E3.12521
G1 X106.366 Y135.288 E3.12968
G1 X106.05 Y135.084 E3.14219
G1 X105.612 Y134.79 E3.15973
G1 X105.262 Y134.545 E3.17394
G1 X104.985 Y134.343 E3.18535
G1 X104.683 Y134.115 E3.19793
G1 X104.42 Y133.909 E3.20904
G1 X104.074 Y133.627 E3.22389
G1 X103.799 Y133.393 E3.2359
G1 X103.523 Y133.15 E3.24813
G1 X103.211 Y132.866 E3.26216
G1 X102.888 Y132.559 E3.27698
G1 X102.655 Y132.329 E3.28787
G1 X102.402 Y132.071 E3.29989
G1 X102.126 Y131.78 E3.31323
G1 X101.841 Y131.467 E3.32731
G1 X101.654 Y131.254 E3.33674
G1 X101.404 Y130.96 E3.34957
G1 X101.099 Y130.587 E3.3656
G1 X100.834 Y130.249 E3.37989
G1 X100.619 Y129.964 E3.39176
G1 X100.381 Y129.637 E3.40521
G1 X100.219 Y129.405 E3.41462
G1 X100.013 Y129.099 E3.42689
G1 X99.772 Y128.728 E3.44161
G1 X99.509 Y128.301 E3.45829
G1 X99.343 Y128.018 E3.4692
G1 X99.184 Y127.739 E3.47988
G1 X99.007 Y127.416 E3.49213
G1 X98.81 Y127.038 E3.50631
G1 X98.632 Y126.681 E3.51957
G1 X98.442 Y126.282 E3.53427
G1 X98.269 Y125.897 E3.54831
G1 X98.141 Y125.6 E3.55907
G1 X98.044 Y125.366 E3.56749
G1 X97.878 Y124.939 E3.58273
G1 X97.749 Y124.587 E3.5952
G1 X97.611 Y124.187 E3.60927
G1 X97.458 Y123.714 E3.62581
G1 X97.333 Y123.301 E3.64016
G1 X97.278 Y123.105 E3.64693
G1 X97.189 Y122.766 E3.65859
G1 X97.066 Y122.267 E3.67568
G1 X96.974 Y121.86 E3.68956
G1 X96.924 Y121.618 E3.69778
G1 X96.847 Y121.208 E3.71165
G1 X96.767 Y120.73 E3.72777
G1 X96.707 Y120.326 E3.74136
G1 X96.667 Y120.017 E3.75172
G1 X96.625 Y119.637 E3.76444
G1 X96.602 Y119.393 E3.77259
G1 X96.57 Y118.972 E3.78663
G1 X96.536 Y118.361 E3.80698
G1 X96.52 Y117.926 E3.82146
G1 X96.516 Y117.676 E3.82978
G1 X96.516 Y117.324 E3.84149
G1 X96.52 Y117.074 E3.8498
G1 X96.536 Y116.639 E3.86428
G1 X96.57 Y116.028 E3.88463
G1 X96.602 Y115.602 E3.89884
G1 X96.625 Y115.359 E3.90696
G1 X96.666 Y114.988 E3.91937
G1 X96.706 Y114.678 E3.92977
G1 X96.768 Y114.263 E3.94373
G1 X96.848 Y113.787 E3.95978
G1 X96.92 Y113.402 E3.97281
G1 X96.97 Y113.158 E3.98109
G1 X97.063 Y112.743 E3.99524
G1 X97.186 Y112.242 E4.0124
G1 X97.286 Y111.865 E4.02537
G1 X97.341 Y111.671 E4.03208
G1 X97.462 Y111.273 E4.04591
G1 X97.615 Y110.802 E4.06238
G1 X97.751 Y110.408 E4.07625
G1 X97.881 Y110.054 E4.08879
G1 X98.018 Y109.701 E4.10138
G1 X98.114 Y109.465 E4.10986
G1 X98.278 Y109.082 E4.12371
G1 X98.451 Y108.699 E4.13769
G1 X98.643 Y108.297 E4.15251
G1 X98.821 Y107.942 E4.16572
G1 X98.994 Y107.611 E4.17814
G1 X99.171 Y107.286 E4.19045
G1 X99.366 Y106.942 E4.2036
G1 X99.533 Y106.66 E4.2145
G1 X99.755 Y106.302 E4.22851
G1 X99.995 Y105.93 E4.24324
G1 X100.237 Y105.569 E4.25769
G1 X100.4 Y105.337 E4.26712
G1 X100.615 Y105.042 E4.27926
G1 X100.838 Y104.746 E4.29159
G1 X101.099 Y104.413 E4.30566
G1 X101.395 Y104.05 E4.32124
G1 X101.671 Y103.725 E4.33542
G1 X101.858 Y103.513 E4.34482
G1 X102.1 Y103.248 E4.35676
G1 X102.376 Y102.955 E4.37015
G1 X102.69 Y102.635 E4.38506
G0 F6000 X102.969 Y102.921
G1 F1200 X103.202 Y102.693 E4.3959
G1 X103.467 Y102.443 E4.40802
G1 X103.779 Y102.158 E4.42207
G1 X104.076 Y101.897 E4.43522
G1 X104.351 Y101.664 E4.44721
G1 X104.678 Y101.397 E4.46125
G1 X104.952 Y101.183 E4.47282
G1 X105.231 Y100.973 E4.48443
G1 X105.497 Y100.779 E4.49538
G1 X105.835 Y100.542 E4.50911
G1 X106.273 Y100.248 E4.52666
G1 X106.577 Y100.051 E4.53871
G1 X106.691 Y99.98 E4.54317
G1 X107.055 Y99.764 E4.55725
G1 X107.514 Y99.503 E4.57481
G1 X107.852 Y99.318 E4.58763
G1 X108.247 Y99.112 E4.60244
G1 X108.652 Y98.912 E4.61747
G1 X109.052 Y98.73 E4.63208
G1 X109.556 Y98.512 E4.65035
G1 X109.948 Y98.352 E4.66443
G1 X110.246 Y98.237 E4.67505
G1 X110.598 Y98.108 E4.68752
G1 X110.919 Y97.997 E4.69882
G1 X111.31 Y97.87 E4.71249
G1 X111.749 Y97.737 E4.72775
G1 X112.083 Y97.642 E4.7393
G1 X112.397 Y97.558 E4.75011
G1 X112.825 Y97.453 E4.76477
G1 X113.116 Y97.388 E4.77469
G1 X113.471 Y97.315 E4.78674
G1 X113.945 Y97.226 E4.80278
G1 X114.352 Y97.158 E4.81651
G1 X114.616 Y97.119 E4.82538
G1 X114.971 Y97.072 E4.83729
G1 X115.368 Y97.027 E4.85058
G1 X115.788 Y96.988 E4.86461
G1 X116.239 Y96.955 E4.87965
G1 X116.632 Y96.934 E4.89274
G1 X116.882 Y96.925 E4.90106
G1 X117.263 Y96.918 E4.91373
G1 X117.736 Y96.918 E4.92947
G1 X118.114 Y96.925 E4.94204
G1 X118.366 Y96.934 E4.95043
G1 X118.765 Y96.956 E4.96372
G1 X119.214 Y96.989 E4.97869
G1 X119.625 Y97.027 E4.99242
G1 X120.024 Y97.072 E5.00578
G1 X120.397 Y97.121 E5.01829
G1 X120.659 Y97.16 E5.0271
G1 X121.05 Y97.225 E5.04028
G1 X121.525 Y97.314 E5.05636
G1 X121.85 Y97.38 E5.06739
G1 X122.141 Y97.444 E5.0773
G1 X122.626 Y97.563 E5.09391
G1 X122.941 Y97.648 E5.10476
G1 X123.265 Y97.741 E5.11597
G1 X123.702 Y97.874 E5.13116
G1 X124.071 Y97.994 E5.14407
G1 X124.393 Y98.105 E5.1554
G1 X124.754 Y98.237 E5.16818
G1 X125.052 Y98.352 E5.1788
G1 X125.444 Y98.512 E5.19289
G1 X125.948 Y98.73 E5.21115
G1 X126.348 Y98.912 E5.22577
G1 X126.744 Y99.108 E5.24046
G1 X127.138 Y99.313 E5.25524
G1 X127.5 Y99.51 E5.26894
G1 X127.959 Y99.772 E5.28652
G1 X128.273 Y99.959 E5.29868
G1 X128.388 Y100.03 E5.30317
G1 X128.722 Y100.245 E5.31638
G1 X129.159 Y100.538 E5.33388
G1 X129.508 Y100.782 E5.34805
G1 X129.775 Y100.977 E5.35904
G1 X130.043 Y101.18 E5.37022
G1 X130.316 Y101.393 E5.38174
G1 X130.665 Y101.677 E5.39671
G1 X130.94 Y101.911 E5.40872
G1 X131.194 Y102.134 E5.41996
G1 X131.507 Y102.418 E5.43402
G1 X131.83 Y102.724 E5.44881
G1 X132.062 Y102.953 E5.45966
G1 X132.306 Y103.202 E5.47125
G1 X132.583 Y103.494 E5.48464
G1 X132.859 Y103.796 E5.49825
G1 X133.046 Y104.009 E5.50767
G1 X133.297 Y104.306 E5.52061
G1 X133.592 Y104.668 E5.53614
G1 X133.828 Y104.968 E5.54883
G1 X134.052 Y105.264 E5.56118
G1 X134.302 Y105.609 E5.57535
G1 X134.464 Y105.842 E5.58479
G1 X134.65 Y106.119 E5.59589
G1 X134.891 Y106.49 E5.6106
G1 X135.145 Y106.901 E5.62667
G1 X135.311 Y107.184 E5.63758
G1 X135.458 Y107.443 E5.64749
G1 X135.636 Y107.767 E5.65978
G1 X135.822 Y108.12 E5.67305
G1 X136.001 Y108.477 E5.68634
G1 X136.195 Y108.885 E5.70136
G1 X136.367 Y109.268 E5.71533
G1 X136.504 Y109.588 E5.72691
G1 X136.6 Y109.822 E5.73532
G1 X136.743 Y110.191 E5.74848
G1 X136.873 Y110.545 E5.76102
G1 X137.002 Y110.917 E5.77412
G1 X137.156 Y111.39 E5.79066
G1 X137.289 Y111.83 E5.80595
G1 X137.343 Y112.024 E5.81265
G1 X137.428 Y112.349 E5.82382
G1 X137.55 Y112.848 E5.84091
G1 X137.629 Y113.196 E5.85278
G1 X137.68 Y113.44 E5.86107
G1 X137.758 Y113.856 E5.87515
G1 X137.838 Y114.333 E5.89123
G1 X137.896 Y114.725 E5.90441
G1 X137.936 Y115.034 E5.91478
G1 X137.977 Y115.396 E5.92689
G1 X138 Y115.639 E5.93501
G1 X138.031 Y116.049 E5.94869
G1 X138.065 Y116.66 E5.96904
G1 X138.08 Y117.08 E5.98302
G1 X138.084 Y117.331 E5.99137
G1 X138.084 Y117.67 E6.00264
G1 X138.08 Y117.919 E6.01093
G1 X138.065 Y118.338 E6.02487
G1 X138.031 Y118.949 E6.04522
G1 X138.001 Y119.351 E6.05863
G1 X137.978 Y119.596 E6.06682
G1 X137.936 Y119.966 E6.0792
G1 X137.896 Y120.275 E6.08956
G1 X137.838 Y120.667 E6.10274
G1 X137.758 Y121.144 E6.11883
G1 X137.688 Y121.519 E6.13152
G1 X137.638 Y121.763 E6.1398
G1 X137.546 Y122.172 E6.15375
G1 X137.423 Y122.671 E6.17084
G1 X137.329 Y123.025 E6.18302
G1 X137.274 Y123.219 E6.18973
G1 X137.161 Y123.59 E6.20263
G1 X137.008 Y124.063 E6.21916
G1 X136.867 Y124.473 E6.23358
G1 X136.737 Y124.825 E6.24606
G1 X136.612 Y125.147 E6.25755
G1 X136.516 Y125.383 E6.26603
G1 X136.352 Y125.764 E6.27982
G1 X136.178 Y126.148 E6.29384
G1 X136.015 Y126.492 E6.30651
G1 X135.838 Y126.848 E6.31973
G1 X135.66 Y127.189 E6.33252
G1 X135.484 Y127.513 E6.34479
G1 X135.285 Y127.864 E6.35821
G1 X135.117 Y128.147 E6.36915
G1 X134.906 Y128.487 E6.38246
G1 X134.667 Y128.857 E6.39711
G1 X134.431 Y129.207 E6.41115
G1 X134.267 Y129.44 E6.42063
G1 X134.079 Y129.699 E6.43127
G1 X133.866 Y129.983 E6.44308
G1 X133.599 Y130.325 E6.45751
G1 X133.293 Y130.7 E6.47361
G1 X133.013 Y131.029 E6.48798
G1 X132.826 Y131.24 E6.49736
G1 X132.61 Y131.476 E6.508
G1 X132.335 Y131.768 E6.52134
G1 X132.032 Y132.076 E6.53571
G1 X131.797 Y132.306 E6.54664
G1 X131.532 Y132.557 E6.55878
G1 X131.22 Y132.842 E6.57284
G1 X130.935 Y133.093 E6.58547
G1 X130.662 Y133.325 E6.59739
G1 X130.343 Y133.586 E6.6111
G1 X130.078 Y133.794 E6.6223
G1 X129.768 Y134.029 E6.63524
G1 X129.493 Y134.229 E6.64655
G1 X129.17 Y134.454 E6.65964
G1 X128.731 Y134.749 E6.67723
G1 X128.423 Y134.949 E6.68945
G1 X128.309 Y135.02 E6.69391
