;FLAVOR:Marlin
;TIME:263
;Filament used: 0.181969m
;Layer height: 0.2
;Generated with Cura_SteamEngine 3.4.1
M190 S45
M104 S195
M109 S195
M82 ;absolute extrusion mode
;Sliced at Sat 11-08-2018 11:43:25
;Basic settings:
;Layer height: 0.2
;Walls: 0.8
;Top/Bottom: 0.6
;Fill: 10
;Retraction Distance: 7
;Retraction Speed: 60
G28 ;Home
G1 Z15.0 F6000 ;Move the platform down 15mm
;Prime the extruder
G92 E0
G1 F200 E3
G92 E0
G92 E0
G1 F3600 E-7
;LAYER_COUNT:2
;LAYER:0
M107
M204 S5000
M205 X30 Y30
G0 F3600 X26.401 Y26.181 Z0.2
M204 S500
M205 X20 Y20
;TYPE:SKIRT
G1 F3600 E0
G1 F1800 X26.992 Y25.631 E0.02115
G1 X28.036 Y24.784 E0.05636
G1 X28.663 Y24.34 E0.07648
G1 X29.772 Y23.659 E0.11057
G1 X30.478 Y23.288 E0.13146
G1 X31.754 Y22.726 E0.16798
G1 X32.692 Y22.405 E0.19394
G1 X34.617 Y21.922 E0.24593
G1 X35.29 Y21.794 E0.26387
G1 X35.787 Y21.751 E0.27694
G1 X37.864 Y21.659 E0.33139
G1 X38.549 Y21.668 E0.34934
G1 X38.982 Y21.716 E0.36075
G1 X40.588 Y21.953 E0.40327
G1 X41.43 Y22.141 E0.42586
G1 X42.72 Y22.531 E0.46116
G1 X43.447 Y22.805 E0.48151
G1 X44.644 Y23.348 E0.51594
G1 X45.342 Y23.723 E0.53669
G1 X46.498 Y24.449 E0.57245
G1 X47.128 Y24.906 E0.59283
G1 X48.128 Y25.737 E0.62689
G1 X48.525 Y26.099 E0.64096
G1 X52.833 Y30.403 E0.80046
G1 X54.729 Y32.146 E0.86792
G1 X58.828 Y35.609 E1.00847
G1 X63.079 Y38.805 E1.14777
G1 X67.517 Y41.766 E1.28751
G1 X72.097 Y44.459 E1.42667
G1 X76.838 Y46.898 E1.56632
G1 X81.744 Y49.08 E1.70695
G1 X84.18 Y50.043 E1.77556
G1 X86.64 Y50.933 E1.84408
G1 X91.756 Y52.546 E1.98458
G1 X96.953 Y53.867 E2.12503
G1 X99.54 Y54.41 E2.19427
G1 X102.102 Y54.869 E2.26244
G1 X107.409 Y55.594 E2.40274
G1 X112.72 Y56.015 E2.54228
G1 X118.046 Y56.134 E2.68182
G1 X123.369 Y55.954 E2.82132
G1 X128.662 Y55.472 E2.96053
G1 X133.935 Y54.691 E3.10015
G1 X139.185 Y53.607 E3.24056
G1 X141.713 Y52.971 E3.30884
G1 X144.252 Y52.257 E3.37792
G1 X149.391 Y50.573 E3.51956
G1 X151.849 Y49.649 E3.58834
G1 X154.281 Y48.656 E3.65715
G1 X159.146 Y46.424 E3.79734
G1 X163.846 Y43.938 E3.93661
G1 X168.409 Y41.183 E4.07622
G1 X172.8 Y38.181 E4.21554
G1 X177.025 Y34.927 E4.35522
G1 X181.034 Y31.461 E4.49403
G1 X186.57 Y26.008 E4.69756
G1 X186.992 Y25.631 E4.71238
G1 X188.036 Y24.784 E4.74759
G1 X188.663 Y24.34 E4.76771
G1 X189.772 Y23.659 E4.8018
G1 X190.478 Y23.288 E4.82269
G1 X191.754 Y22.726 E4.85921
G1 X192.692 Y22.405 E4.88518
G1 X194.617 Y21.922 E4.93716
G1 X195.29 Y21.794 E4.9551
G1 X195.787 Y21.751 E4.96817
G1 X197.864 Y21.659 E5.02262
G1 X198.549 Y21.668 E5.04057
G1 X198.982 Y21.716 E5.05198
G1 X200.588 Y21.953 E5.0945
G1 X201.43 Y22.141 E5.1171
G1 X202.72 Y22.531 E5.15239
G1 X203.447 Y22.805 E5.17274
G1 X204.644 Y23.348 E5.20717
G1 X205.342 Y23.723 E5.22792
G1 X206.498 Y24.449 E5.26368
G1 X207.128 Y24.906 E5.28406
G1 X208.128 Y25.737 E5.31812
G1 X208.702 Y26.283 E5.33887
G1 X209.635 Y27.3 E5.37502
G1 X210.128 Y27.915 E5.39566
G1 X210.868 Y28.978 E5.42959
G1 X211.27 Y29.646 E5.45001
G1 X211.897 Y30.864 E5.48589
G1 X212.216 Y31.606 E5.50704
G1 X212.669 Y32.896 E5.54286
G1 X212.877 Y33.641 E5.56312
G1 X213.138 Y34.89 E5.59654
G1 X213.257 Y35.854 E5.62198
G1 X213.341 Y37.922 E5.67619
G1 X213.329 Y38.607 E5.69413
G1 X213.279 Y39.047 E5.70573
G1 X213.034 Y40.651 E5.74823
G1 X212.885 Y41.341 E5.76672
G1 X212.618 Y42.299 E5.79277
G1 X212.36 Y43.033 E5.81315
G1 X211.803 Y44.335 E5.85024
G1 X211.449 Y45.031 E5.87069
G1 X210.764 Y46.181 E5.90575
G1 X210.325 Y46.818 E5.92601
G1 X209.52 Y47.836 E5.96001
G1 X209.091 Y48.322 E5.97699
G1 X203.971 Y53.503 E6.16777
G1 X200.486 Y57.48 E6.30627
G1 X197.191 Y61.697 E6.44645
G1 X194.171 Y66.051 E6.58524
G1 X191.384 Y70.597 E6.7249
G1 X188.861 Y75.287 E6.86439
G1 X186.587 Y80.157 E7.00517
G1 X185.616 Y82.486 E7.07126
G1 X183.753 Y87.559 E7.21281
G1 X182.201 Y92.664 E7.35256
G1 X180.926 Y97.894 E7.49356
G1 X180.428 Y100.409 E7.56072
G1 X179.606 Y105.7 E7.70096
G1 X179.088 Y110.999 E7.84042
G1 X178.871 Y116.323 E7.97998
G1 X178.954 Y121.633 E8.11908
G1 X179.34 Y126.964 E8.25908
G1 X180.023 Y132.234 E8.39826
G1 X181.009 Y137.492 E8.53838
G1 X181.589 Y139.995 E8.60568
G1 X183.03 Y145.196 E8.74704
G1 X184.736 Y150.229 E8.88623
G1 X186.727 Y155.164 E9.02561
G1 X189.001 Y159.995 E9.16547
G1 X191.531 Y164.663 E9.30454
G1 X194.331 Y169.199 E9.44416
G1 X197.376 Y173.558 E9.58343
G1 X200.665 Y177.744 E9.72286
G1 X204.185 Y181.734 E9.86223
G1 X209.032 Y186.616 E10.04242
G1 X209.453 Y187.088 E10.05898
G1 X210.299 Y188.147 E10.09449
G1 X210.752 Y188.8 E10.1153
G1 X211.447 Y189.963 E10.15079
G1 X211.802 Y190.659 E10.17125
G1 X212.307 Y191.835 E10.20477
G1 X212.568 Y192.573 E10.22528
G1 X212.943 Y193.916 E10.2618
G1 X213.106 Y194.71 E10.28303
G1 X213.286 Y196.044 E10.31829
G1 X213.339 Y196.817 E10.33858
G1 X213.342 Y198.199 E10.37478
G1 X213.272 Y199.113 E10.39879
G1 X213.031 Y200.665 E10.43993
G1 X212.885 Y201.341 E10.45804
G1 X212.618 Y202.299 E10.48409
G1 X212.36 Y203.033 E10.50447
G1 X211.803 Y204.335 E10.54156
G1 X211.449 Y205.031 E10.56201
G1 X210.764 Y206.181 E10.59707
G1 X210.325 Y206.818 E10.61734
G1 X209.52 Y207.836 E10.65133
G1 X209 Y208.412 E10.67165
G1 X208.042 Y209.34 E10.70659
G1 X207.43 Y209.857 E10.72757
G1 X206.303 Y210.684 E10.76419
G1 X205.628 Y211.111 E10.78511
G1 X204.483 Y211.732 E10.81922
G1 X203.589 Y212.125 E10.8448
G1 X201.674 Y212.782 E10.89783
G1 X201.013 Y212.966 E10.9158
G1 X200.532 Y213.05 E10.92859
G1 X198.584 Y213.306 E10.98005
G1 X197.601 Y213.352 E11.00583
G1 X196.229 Y213.301 E11.04179
G1 X195.236 Y213.179 E11.06799
G1 X193.243 Y212.759 E11.12134
G1 X192.581 Y212.579 E11.13931
G1 X192.104 Y212.395 E11.1527
G1 X190.257 Y211.589 E11.20548
G1 X189.646 Y211.278 E11.22344
G1 X189.224 Y211.007 E11.23658
G1 X187.574 Y209.845 E11.28944
G1 X186.972 Y209.359 E11.3097
G1 X186.504 Y208.927 E11.32638
G1 X186.331 Y208.761 E11.33266
G1 X181.999 Y204.422 E11.49326
G1 X178.033 Y200.895 E11.63227
G1 X173.863 Y197.591 E11.77162
G1 X169.515 Y194.528 E11.91093
G1 X164.988 Y191.709 E12.05061
G1 X160.325 Y189.157 E12.18984
G1 X155.506 Y186.867 E12.32959
G1 X150.521 Y184.831 E12.47063
G1 X148.112 Y183.968 E12.53765
G1 X143 Y182.373 E12.67791
G1 X137.806 Y181.068 E12.81818
G1 X135.193 Y180.528 E12.88807
G1 X132.636 Y180.077 E12.95608
G1 X127.333 Y179.369 E13.09621
G1 X122.02 Y178.963 E13.23577
G1 X116.694 Y178.858 E13.3753
G1 X111.369 Y179.054 E13.51487
G1 X106.085 Y179.55 E13.65388
G1 X100.808 Y180.348 E13.79367
G1 X95.555 Y181.448 E13.93424
G1 X93.098 Y182.072 E14.00064
G1 X87.898 Y183.631 E14.14283
G1 X82.906 Y185.444 E14.28194
G1 X80.501 Y186.433 E14.35005
G1 X75.618 Y188.69 E14.49095
G1 X70.933 Y191.186 E14.62999
G1 X66.369 Y193.958 E14.76985
G1 X61.986 Y196.974 E14.9092
G1 X57.781 Y200.232 E15.04853
G1 X53.773 Y203.716 E15.18763
G1 X48.068 Y209.314 E15.39698
G1 X47.43 Y209.857 E15.41892
G1 X46.303 Y210.684 E15.45554
G1 X45.628 Y211.111 E15.47646
G1 X44.483 Y211.732 E15.51057
G1 X43.589 Y212.125 E15.53615
G1 X41.674 Y212.782 E15.58918
G1 X41.013 Y212.966 E15.60715
G1 X40.532 Y213.05 E15.61994
G1 X38.584 Y213.306 E15.6714
G1 X37.601 Y213.352 E15.69718
G1 X36.229 Y213.301 E15.73314
G1 X35.236 Y213.179 E15.75934
G1 X33.243 Y212.759 E15.81269
G1 X32.581 Y212.579 E15.83066
G1 X32.104 Y212.395 E15.84405
G1 X30.257 Y211.589 E15.89683
G1 X29.646 Y211.278 E15.91479
G1 X29.224 Y211.007 E15.92793
G1 X27.574 Y209.845 E15.98079
G1 X26.828 Y209.221 E16.00626
G1 X25.916 Y208.32 E16.03984
G1 X25.403 Y207.742 E16.06008
G1 X24.559 Y206.654 E16.09615
G1 X24.107 Y205.979 E16.11743
G1 X23.432 Y204.804 E16.15292
G1 X23.09 Y204.107 E16.17325
G1 X22.6 Y202.912 E16.20708
G1 X22.356 Y202.184 E16.22719
G1 X22.017 Y200.901 E16.26195
G1 X21.865 Y200.11 E16.28305
G1 X21.696 Y198.721 E16.3197
G1 X21.654 Y197.922 E16.34065
G1 X21.674 Y196.598 E16.37534
G1 X21.768 Y195.637 E16.40063
G1 X22.118 Y193.71 E16.45193
G1 X22.279 Y193.044 E16.46987
G1 X22.442 Y192.582 E16.48271
G1 X23.194 Y190.698 E16.53584
G1 X23.643 Y189.803 E16.56206
G1 X24.364 Y188.628 E16.59817
G1 X24.829 Y187.974 E16.61919
G1 X25.689 Y186.926 E16.6547
G1 X26.13 Y186.446 E16.67177
G1 X28.082 Y184.543 E16.74318
G1 X31.817 Y180.644 E16.8846
G1 X35.273 Y176.6 E17.02393
G1 X38.497 Y172.363 E17.16338
G1 X41.474 Y167.957 E17.30266
G1 X44.213 Y163.36 E17.44282
G1 X46.673 Y158.645 E17.58211
G1 X47.779 Y156.285 E17.65038
G1 X49.844 Y151.346 E17.79059
G1 X51.626 Y146.301 E17.93073
G1 X53.115 Y141.181 E18.07039
G1 X53.75 Y138.591 E18.14024
G1 X54.297 Y136.048 E18.20837
G1 X55.202 Y130.772 E18.34858
G1 X55.802 Y125.494 E18.48771
G1 X56.104 Y120.159 E18.62767
G1 X56.104 Y114.848 E18.76678
G1 X55.804 Y109.53 E18.90629
G1 X55.202 Y104.234 E19.0459
G1 X54.295 Y98.94 E19.18658
G1 X53.753 Y96.422 E19.25405
G1 X53.121 Y93.84 E19.32367
G1 X51.624 Y88.688 E19.4642
G1 X49.852 Y83.669 E19.60361
G1 X47.796 Y78.75 E19.74325
G1 X45.471 Y73.968 E19.88252
G1 X42.871 Y69.31 E20.02225
G1 X40.027 Y64.83 E20.16123
G1 X36.927 Y60.508 E20.30055
G1 X33.572 Y56.35 E20.44049
G1 X30 Y52.4 E20.57998
G1 X26.394 Y48.825 E20.71297
G1 X26.134 Y48.551 E20.72287
G1 X25.188 Y47.484 E20.76022
G1 X24.703 Y46.856 E20.781
G1 X23.982 Y45.78 E20.81493
G1 X23.592 Y45.105 E20.83534
G1 X22.985 Y43.872 E20.87134
G1 X22.677 Y43.118 E20.89267
G1 X22.248 Y41.818 E20.92853
G1 X22.052 Y41.056 E20.94914
G1 X21.812 Y39.771 E20.98338
G1 X21.721 Y39.01 E21.00345
G1 X21.649 Y37.683 E21.03826
G1 X21.679 Y36.689 E21.06431
G1 X21.914 Y34.661 E21.11778
G1 X22.032 Y33.986 E21.13573
G1 X22.172 Y33.492 E21.14918
G1 X22.799 Y31.597 E21.20146
G1 X23.184 Y30.695 E21.22715
G1 X23.813 Y29.506 E21.26238
G1 X24.216 Y28.852 E21.2825
G1 X24.97 Y27.79 E21.31661
G1 X25.468 Y27.179 E21.33726
G1 X26.401 Y26.181 E21.37304
M204 S5000
M205 X30 Y30
G0 F3600 X26.657 Y26.42
M204 S500
M205 X20 Y20
G1 F1800 X27.212 Y25.902 E21.39293
G1 X28.256 Y25.055 E21.42814
G1 X28.846 Y24.638 E21.44706
G1 X29.955 Y23.957 E21.48115
G1 X30.619 Y23.609 E21.50079
G1 X31.895 Y23.047 E21.53731
G1 X32.777 Y22.744 E21.56173
G1 X34.702 Y22.261 E21.61372
G1 X35.356 Y22.138 E21.63115
G1 X35.803 Y22.1 E21.6429
G1 X37.88 Y22.008 E21.69735
G1 X38.544 Y22.019 E21.71474
G1 X38.931 Y22.062 E21.72494
G1 X40.537 Y22.299 E21.76746
G1 X41.329 Y22.476 E21.78872
G1 X42.619 Y22.866 E21.82402
G1 X43.302 Y23.123 E21.84313
G1 X44.499 Y23.666 E21.87756
G1 X45.155 Y24.019 E21.89707
G1 X46.311 Y24.745 E21.93283
G1 X46.904 Y25.175 E21.95201
G1 X47.904 Y26.006 E21.98607
G1 X48.278 Y26.346 E21.99931
G1 X52.608 Y30.673 E22.15964
G1 X54.488 Y32.401 E22.22652
G1 X58.613 Y35.885 E22.36795
G1 X62.88 Y39.093 E22.50777
G1 X67.322 Y42.057 E22.64764
G1 X71.929 Y44.766 E22.78763
G1 X76.692 Y47.217 E22.92793
G1 X81.591 Y49.395 E23.06835
G1 X84.074 Y50.377 E23.13829
G1 X86.533 Y51.266 E23.20678
G1 X91.654 Y52.881 E23.34742
G1 X96.891 Y54.212 E23.48895
G1 X99.469 Y54.753 E23.55795
G1 X102.047 Y55.215 E23.62655
G1 X107.367 Y55.942 E23.76718
G1 X112.703 Y56.364 E23.90738
G1 X118.05 Y56.485 E24.04747
G1 X123.396 Y56.303 E24.18758
G1 X128.708 Y55.82 E24.32728
G1 X133.984 Y55.038 E24.46698
G1 X139.278 Y53.945 E24.60857
G1 X141.783 Y53.315 E24.67623
G1 X144.36 Y52.591 E24.74634
G1 X149.505 Y50.904 E24.88816
G1 X151.974 Y49.976 E24.95724
G1 X154.413 Y48.98 E25.02625
G1 X159.292 Y46.742 E25.16684
G1 X164.033 Y44.234 E25.30732
G1 X168.598 Y41.479 E25.44698
G1 X173.014 Y38.46 E25.58709
G1 X177.239 Y35.206 E25.72677
G1 X181.27 Y31.72 E25.86636
G1 X186.816 Y26.257 E26.07026
G1 X187.212 Y25.902 E26.08419
G1 X188.256 Y25.055 E26.1194
G1 X188.846 Y24.638 E26.13832
G1 X189.955 Y23.957 E26.17241
G1 X190.619 Y23.609 E26.19205
G1 X191.895 Y23.047 E26.22857
G1 X192.777 Y22.744 E26.25299
G1 X194.702 Y22.261 E26.30498
G1 X195.356 Y22.138 E26.32241
G1 X195.803 Y22.1 E26.33416
G1 X197.88 Y22.008 E26.38861
G1 X198.544 Y22.019 E26.406
G1 X198.931 Y22.062 E26.4162
G1 X200.537 Y22.299 E26.45872
G1 X201.329 Y22.476 E26.47998
G1 X202.619 Y22.866 E26.51528
G1 X203.302 Y23.123 E26.53439
G1 X204.499 Y23.666 E26.56882
G1 X205.155 Y24.019 E26.58833
G1 X206.311 Y24.745 E26.62409
G1 X206.904 Y25.175 E26.64327
G1 X207.904 Y26.006 E26.67733
G1 X208.444 Y26.52 E26.69685
G1 X209.377 Y27.537 E26.733
G1 X209.84 Y28.115 E26.7524
G1 X210.58 Y29.178 E26.78633
G1 X210.958 Y29.806 E26.80552
G1 X211.585 Y31.024 E26.84141
G1 X211.886 Y31.722 E26.86132
G1 X212.339 Y33.012 E26.89713
G1 X212.534 Y33.713 E26.91618
G1 X212.795 Y34.962 E26.94961
G1 X212.907 Y35.868 E26.97352
G1 X212.991 Y37.936 E27.02773
G1 X212.978 Y38.6 E27.04512
G1 X212.933 Y38.994 E27.05551
G1 X212.688 Y40.598 E27.09801
G1 X212.548 Y41.247 E27.1154
G1 X212.281 Y42.205 E27.14145
G1 X212.039 Y42.895 E27.1606
G1 X211.482 Y44.197 E27.19769
G1 X211.149 Y44.851 E27.21691
G1 X210.464 Y46.001 E27.25197
G1 X210.051 Y46.601 E27.27105
G1 X209.246 Y47.619 E27.30504
G1 X208.842 Y48.076 E27.32102
G1 X203.714 Y53.264 E27.51209
G1 X200.211 Y57.262 E27.65131
G1 X196.922 Y61.472 E27.79124
G1 X193.87 Y65.872 E27.9315
G1 X191.082 Y70.421 E28.07125
G1 X188.549 Y75.13 E28.2113
G1 X186.265 Y80.021 E28.35268
G1 X185.289 Y82.361 E28.41909
G1 X183.421 Y87.448 E28.56103
G1 X181.864 Y92.568 E28.7012
G1 X180.586 Y97.811 E28.84255
G1 X180.086 Y100.337 E28.90999
G1 X179.258 Y105.664 E29.0512
G1 X178.738 Y110.986 E29.19125
G1 X178.52 Y116.314 E29.33092
G1 X178.604 Y121.646 E29.4706
G1 X178.992 Y126.999 E29.61117
G1 X179.677 Y132.288 E29.75086
G1 X180.667 Y137.567 E29.89154
G1 X181.253 Y140.1 E29.95964
G1 X182.688 Y145.276 E30.10033
G1 X184.408 Y150.352 E30.2407
G1 X186.412 Y155.317 E30.38094
G1 X188.683 Y160.141 E30.5206
G1 X191.234 Y164.85 E30.66087
G1 X194.034 Y169.385 E30.80047
G1 X197.093 Y173.765 E30.9404
G1 X200.4 Y177.973 E31.08058
G1 X203.921 Y181.964 E31.21998
G1 X208.784 Y186.862 E31.40076
G1 X209.18 Y187.307 E31.41637
G1 X210.026 Y188.366 E31.45187
G1 X210.452 Y188.98 E31.47144
G1 X211.147 Y190.143 E31.50693
G1 X211.481 Y190.797 E31.52616
G1 X211.986 Y191.973 E31.55969
G1 X212.23 Y192.667 E31.57895
G1 X212.605 Y194.01 E31.61548
G1 X212.759 Y194.757 E31.63545
G1 X212.939 Y196.091 E31.67071
G1 X212.989 Y196.818 E31.6898
G1 X212.992 Y198.2 E31.726
G1 X212.927 Y199.06 E31.74858
G1 X212.686 Y200.612 E31.78972
G1 X212.548 Y201.247 E31.80674
G1 X212.281 Y202.205 E31.83279
G1 X212.039 Y202.895 E31.85194
G1 X211.482 Y204.197 E31.88904
G1 X211.149 Y204.851 E31.90826
G1 X210.464 Y206.001 E31.94332
G1 X210.051 Y206.601 E31.9624
G1 X209.246 Y207.619 E31.99639
G1 X208.756 Y208.16 E32.01551
G1 X207.798 Y209.088 E32.05044
G1 X207.223 Y209.574 E32.07016
G1 X206.096 Y210.401 E32.10678
G1 X205.461 Y210.804 E32.12647
G1 X204.316 Y211.425 E32.16059
G1 X203.475 Y211.794 E32.18465
G1 X201.56 Y212.451 E32.23767
G1 X200.92 Y212.628 E32.25507
G1 X200.487 Y212.703 E32.26658
G1 X198.539 Y212.959 E32.31804
G1 X197.614 Y213.002 E32.34229
G1 X196.242 Y212.951 E32.37825
G1 X195.308 Y212.836 E32.4029
G1 X193.315 Y212.416 E32.45625
G1 X192.674 Y212.24 E32.47366
G1 X192.244 Y212.074 E32.48573
G1 X190.397 Y211.268 E32.53852
G1 X189.805 Y210.966 E32.55592
G1 X189.426 Y210.721 E32.56774
G1 X187.776 Y209.559 E32.6206
G1 X187.21 Y209.102 E32.63966
G1 X186.742 Y208.67 E32.65634
G1 X186.579 Y208.514 E32.66225
G1 X182.241 Y204.169 E32.82306
G1 X178.263 Y200.632 E32.96249
G1 X174.064 Y197.304 E33.10282
G1 X169.712 Y194.239 E33.24225
G1 X165.164 Y191.406 E33.38259
G1 X160.48 Y188.843 E33.52244
G1 X155.654 Y186.549 E33.6624
G1 X150.634 Y184.499 E33.80442
G1 X148.238 Y183.641 E33.87108
G1 X143.1 Y182.037 E34.01207
G1 X137.866 Y180.723 E34.15341
G1 X135.256 Y180.183 E34.22322
G1 X132.697 Y179.732 E34.29128
G1 X127.369 Y179.021 E34.43207
G1 X122.036 Y178.613 E34.57216
G1 X116.688 Y178.508 E34.71226
G1 X111.36 Y178.704 E34.85191
G1 X106.033 Y179.204 E34.99205
G1 X100.755 Y180.002 E35.13187
G1 X95.471 Y181.109 E35.27327
G1 X92.986 Y181.74 E35.34043
G1 X87.8 Y183.295 E35.48223
G1 X82.792 Y185.113 E35.62178
G1 X80.339 Y186.122 E35.69125
G1 X75.462 Y188.376 E35.83198
G1 X70.763 Y190.879 E35.97143
G1 X66.187 Y193.659 E36.11167
G1 X61.784 Y196.689 E36.25166
G1 X57.546 Y199.972 E36.39207
G1 X53.537 Y203.458 E36.53123
G1 X47.823 Y209.064 E36.74089
G1 X47.223 Y209.574 E36.76152
G1 X46.096 Y210.401 E36.79813
G1 X45.461 Y210.804 E36.81783
