;FLAVOR:Marlin
;TIME:3529
;Filament used: 1.93575m
;Layer height: 0.2
;MINX:87.756
;MINY:88.096
;MINZ:0.2
;MAXX:147.251
;MAXY:132.457
;MAXZ:43
;Generated with Cura_SteamEngine 4.8.0
M140 S50
M105
M190 S50
M104 S200
M105
M109 S200
M82 ;absolute extrusion mode
; Ender 3 Custom Start G-code
G92 E0 ; Reset Extruder
G28 ; Home all axes
G1 Z2.0 F3000 ; Move Z Axis up little to prevent scratching of Heat Bed
G1 X0.1 Y20 Z0.3 F5000.0 ; Move to start position
G1 X0.1 Y200.0 Z0.3 F1500.0 E15 ; Draw the first line
G1 X0.4 Y200.0 Z0.3 F5000.0 ; Move to side a little
G1 X0.4 Y20 Z0.3 F1500.0 E30 ; Draw the second line
G92 E0 ; Reset Extruder
G1 Z2.0 F3000 ; Move Z Axis up little to prevent scratching of Heat Bed
G1 X5 Y20 Z0.3 F5000.0 ; Move over to prevent blob squish
G92 E0
G92 E0
G1 F2700 E-5
;LAYER_COUNT:215
;LAYER:0
M107
G0 F6000 X113.589 Y95.849 Z0.2
;TYPE:SKIRT
G1 F2700 E0
G1 F1200 X114.22 Y95.133 E0.03174
G1 X114.909 Y94.472 E0.0635
G1 X115.65 Y93.87 E0.09525
G1 X116.44 Y93.333 E0.12702
G1 X117.271 Y92.864 E0.15876
G1 X118.139 Y92.466 E0.19052
G1 X119.037 Y92.142 E0.22227
G1 X119.959 Y91.895 E0.25402
G1 X120.899 Y91.725 E0.28579
G1 X121.849 Y91.635 E0.31753
G1 X122.804 Y91.624 E0.3493
G1 X123.756 Y91.694 E0.38105
G1 X124.7 Y91.843 E0.41283
G1 X125.627 Y92.07 E0.44458
G1 X126.532 Y92.374 E0.47633
G1 X127.408 Y92.753 E0.50807
G1 X128.25 Y93.204 E0.53984
G1 X129.051 Y93.723 E0.57159
G1 X129.806 Y94.308 E0.60336
G1 X130.509 Y94.954 E0.63511
G1 X131.354 Y95.897 E0.67722
G1 X131.43 Y95.992 E0.68127
G1 X131.995 Y96.762 E0.71304
G1 X132.493 Y97.577 E0.7448
G1 X132.921 Y98.43 E0.77655
G1 X133.295 Y99.368 E0.81013
G1 X133.406 Y99.687 E0.82137
G1 X133.546 Y100.117 E0.83641
G1 X133.767 Y100.844 E0.86168
G1 X134.006 Y101.769 E0.89346
G1 X134.167 Y102.71 E0.92521
G1 X134.26 Y104.099 E0.97151
G1 X134.262 Y104.472 E0.98392
G1 X134.259 Y104.81 E0.99516
G1 X134.245 Y105.385 E1.01429
G1 X134.233 Y105.698 E1.02471
G1 X134.204 Y106.258 E1.04336
G1 X134.183 Y106.577 E1.05399
G1 X134.127 Y107.264 E1.07692
G1 X134.036 Y108.246 E1.10972
G1 X133.935 Y109.301 E1.14497
G1 X133.863 Y109.995 E1.16817
G1 X133.838 Y110.216 E1.17557
G1 X133.749 Y110.937 E1.19973
G1 X133.593 Y111.878 E1.23146
G1 X133.396 Y112.672 E1.25867
G1 X133.259 Y113.126 E1.27444
G1 X133.074 Y113.694 E1.29431
G1 X132.74 Y114.589 E1.32608
G1 X132.333 Y115.453 E1.35785
G1 X131.855 Y116.279 E1.38959
G1 X131.31 Y117.063 E1.42135
G1 X130.7 Y117.798 E1.45311
G1 X130.032 Y118.48 E1.48487
G1 X129.309 Y119.103 E1.51661
G1 X128.536 Y119.664 E1.54838
G1 X127.321 Y120.366 E1.59505
G1 X126.954 Y120.549 E1.60869
G1 X126.24 Y120.875 E1.63479
G1 X125.344 Y121.205 E1.66655
G1 X124.423 Y121.459 E1.69833
G1 X123.485 Y121.635 E1.73007
G1 X122.535 Y121.732 E1.76183
G1 X121.58 Y121.749 E1.7936
G1 X120.628 Y121.686 E1.82533
G1 X119.684 Y121.543 E1.85709
G1 X118.755 Y121.322 E1.88885
G1 X117.848 Y121.024 E1.9206
G1 X116.969 Y120.652 E1.95235
G1 X116.009 Y120.139 E1.98855
G1 X115.783 Y120.004 E1.99731
G1 X114.984 Y119.48 E2.02909
G1 X114.233 Y118.892 E2.06081
G1 X113.533 Y118.242 E2.09258
G1 X112.889 Y117.537 E2.12434
G1 X112.308 Y116.78 E2.15608
G1 X111.791 Y115.977 E2.18785
G1 X111.344 Y115.133 E2.21961
G1 X110.968 Y114.255 E2.25138
G1 X110.668 Y113.349 E2.28312
G1 X110.444 Y112.421 E2.31487
G1 X110.293 Y111.424 E2.34841
G1 X110.275 Y111.255 E2.35406
G1 X110.237 Y110.823 E2.36849
G1 X110.213 Y110.471 E2.38022
G1 X110.188 Y109.517 E2.41196
G1 X110.244 Y108.56 E2.44385
G1 X110.328 Y107.728 E2.47166
G1 X110.367 Y107.388 E2.48304
G1 X110.481 Y106.333 E2.51834
G1 X110.78 Y103.446 E2.61487
G1 X110.903 Y102.462 E2.64786
G1 X110.956 Y102.082 E2.66062
G1 X111.009 Y101.759 E2.6715
G1 X111.097 Y101.262 E2.68829
G1 X111.302 Y100.33 E2.72003
G1 X111.585 Y99.418 E2.75179
G1 X111.944 Y98.533 E2.78356
G1 X112.387 Y97.659 E2.81615
G1 X112.517 Y97.428 E2.82496
G1 X113.02 Y96.616 E2.85673
G1 X113.589 Y95.849 E2.8885
G0 F6000 X113.921 Y96.075
G1 F1200 X114.543 Y95.374 E2.91967
G1 X115.223 Y94.728 E2.95086
G1 X115.956 Y94.142 E2.98207
G1 X116.735 Y93.621 E3.01324
G1 X117.557 Y93.168 E3.04446
G1 X118.414 Y92.787 E3.07566
G1 X119.3 Y92.48 E3.10684
G1 X120.209 Y92.25 E3.13803
G1 X121.135 Y92.098 E3.16924
G1 X122.07 Y92.026 E3.20043
G1 X123.008 Y92.033 E3.23163
G1 X123.941 Y92.12 E3.2628
G1 X124.864 Y92.287 E3.29399
G1 X125.77 Y92.531 E3.3252
G1 X126.651 Y92.852 E3.35639
G1 X127.502 Y93.247 E3.38759
G1 X128.316 Y93.712 E3.41877
G1 X129.087 Y94.246 E3.44997
G1 X129.811 Y94.843 E3.48118
G1 X130.48 Y95.499 E3.51234
G1 X131.042 Y96.147 E3.54087
G1 X131.118 Y96.242 E3.54492
G1 X131.672 Y96.999 E3.57612
G1 X132.159 Y97.8 E3.60729
G1 X132.577 Y98.64 E3.6385
G1 X132.917 Y99.499 E3.66923
G1 X133.028 Y99.818 E3.68046
G1 X133.163 Y100.234 E3.69501
G1 X133.384 Y100.961 E3.72028
G1 X133.619 Y101.869 E3.75148
G1 X133.775 Y102.794 E3.78268
G1 X133.86 Y104.101 E3.82624
G1 X133.862 Y104.474 E3.83865
G1 X133.859 Y104.801 E3.84952
G1 X133.845 Y105.376 E3.86865
G1 X133.833 Y105.677 E3.87867
G1 X133.804 Y106.237 E3.89732
G1 X133.784 Y106.545 E3.90759
G1 X133.729 Y107.227 E3.93035
G1 X133.638 Y108.208 E3.96311
G1 X133.537 Y109.26 E3.99826
G1 X133.465 Y109.954 E4.02147
G1 X133.441 Y110.167 E4.0286
G1 X133.352 Y110.888 E4.05276
G1 X133.198 Y111.813 E4.08395
G1 X133.012 Y112.562 E4.10962
G1 X132.878 Y113.003 E4.12495
G1 X132.693 Y113.571 E4.14482
G1 X132.365 Y114.449 E4.17599
G1 X131.963 Y115.297 E4.20721
G1 X131.491 Y116.107 E4.23839
G1 X130.951 Y116.874 E4.26958
G1 X130.347 Y117.592 E4.30079
G1 X129.685 Y118.256 E4.33198
G1 X128.969 Y118.861 E4.36315
G1 X128.204 Y119.403 E4.39434
G1 X127.143 Y120.008 E4.43496
G1 X126.776 Y120.191 E4.4486
G1 X126.086 Y120.506 E4.47383
G1 X125.205 Y120.829 E4.50504
G1 X124.301 Y121.077 E4.53622
G1 X123.378 Y121.246 E4.56742
G1 X122.445 Y121.336 E4.5986
G1 X121.507 Y121.346 E4.6298
G1 X120.572 Y121.277 E4.66098
G1 X119.646 Y121.128 E4.69218
G1 X118.736 Y120.901 E4.72337
G1 X117.849 Y120.596 E4.75457
G1 X116.991 Y120.218 E4.78575
G1 X116.214 Y119.795 E4.81518
G1 X115.988 Y119.66 E4.82393
G1 X115.204 Y119.146 E4.85511
G1 X114.467 Y118.566 E4.88631
G1 X113.782 Y117.925 E4.91751
G1 X113.154 Y117.229 E4.94869
G1 X112.587 Y116.482 E4.97988
G1 X112.086 Y115.689 E5.01108
G1 X111.655 Y114.856 E5.04227
G1 X111.296 Y113.989 E5.07348
G1 X111.012 Y113.095 E5.10468
G1 X110.806 Y112.181 E5.13585
G1 X110.691 Y111.382 E5.16269
G1 X110.673 Y111.213 E5.16835
G1 X110.636 Y110.796 E5.18227
G1 X110.612 Y110.444 E5.19401
G1 X110.589 Y109.507 E5.22518
G1 X110.642 Y108.6 E5.2554
G1 X110.726 Y107.773 E5.28305
G1 X110.879 Y106.376 E5.32979
G1 X111.099 Y104.235 E5.40137
G1 X111.178 Y103.488 E5.42636
G1 X111.204 Y103.261 E5.43396
G1 X111.299 Y102.512 E5.45907
G1 X111.352 Y102.14 E5.47157
G1 X111.402 Y101.829 E5.48204
G1 X111.49 Y101.332 E5.49883
G1 X111.693 Y100.416 E5.53004
G1 X111.973 Y99.521 E5.56123
G1 X112.328 Y98.653 E5.59242
G1 X112.736 Y97.855 E5.62223
G1 X112.866 Y97.624 E5.63104
G1 X113.36 Y96.827 E5.66223
G1 X113.921 Y96.075 E5.69344
G0 F6000 X114.252 Y96.302
G1 F1200 X114.866 Y95.615 E5.72408
G1 X115.537 Y94.985 E5.75469
G1 X116.26 Y94.415 E5.78531
G1 X117.03 Y93.911 E5.81592
G1 X117.841 Y93.474 E5.84656
G1 X118.687 Y93.11 E5.8772
G1 X119.561 Y92.821 E5.90781
G1 X120.456 Y92.609 E5.93841
G1 X121.367 Y92.475 E5.96903
G1 X122.286 Y92.42 E5.99965
G1 X123.207 Y92.446 E6.0303
G1 X124.121 Y92.551 E6.0609
G1 X125.023 Y92.736 E6.09152
G1 X125.906 Y92.997 E6.12215
G1 X126.762 Y93.335 E6.15276
G1 X127.586 Y93.746 E6.18338
G1 X128.372 Y94.226 E6.21401
G1 X129.112 Y94.773 E6.24462
G1 X129.803 Y95.382 E6.27526
G1 X130.729 Y96.397 E6.32095
G1 X130.805 Y96.492 E6.325
G1 X131.349 Y97.235 E6.35563
G1 X131.825 Y98.023 E6.38625
G1 X132.232 Y98.849 E6.41687
G1 X132.539 Y99.63 E6.44479
G1 X132.65 Y99.949 E6.45602
G1 X132.781 Y100.35 E6.47005
G1 X133.002 Y101.077 E6.49532
G1 X133.231 Y101.969 E6.52595
G1 X133.382 Y102.877 E6.55657
G1 X133.46 Y104.103 E6.59743
G1 X133.462 Y104.476 E6.60983
G1 X133.459 Y104.791 E6.62031
G1 X133.445 Y105.366 E6.63944
G1 X133.434 Y105.656 E6.64909
G1 X133.405 Y106.216 E6.66774
G1 X133.385 Y106.513 E6.67764
G1 X133.33 Y107.191 E6.70027
G1 X133.24 Y108.17 E6.73297
G1 X133.139 Y109.219 E6.76802
G1 X133.044 Y110.118 E6.79809
G1 X132.955 Y110.839 E6.82225
G1 X132.803 Y111.747 E6.85287
G1 X132.627 Y112.452 E6.87704
G1 X132.498 Y112.879 E6.89187
G1 X132.313 Y113.447 E6.91174
G1 X131.99 Y114.309 E6.94236
G1 X131.594 Y115.14 E6.97298
G1 X131.126 Y115.933 E7.0036
G1 X130.592 Y116.683 E7.03422
G1 X129.995 Y117.384 E7.06485
G1 X129.339 Y118.03 E7.09547
G1 X128.63 Y118.617 E7.12609
G1 X127.872 Y119.14 E7.15672
G1 X126.964 Y119.65 E7.19135
G1 X126.597 Y119.833 E7.20499
G1 X125.932 Y120.137 E7.22931
G1 X125.068 Y120.453 E7.25991
G1 X124.179 Y120.694 E7.29055
G1 X123.273 Y120.857 E7.32116
G1 X122.356 Y120.94 E7.35179
G1 X121.435 Y120.944 E7.38242
G1 X120.518 Y120.867 E7.41303
G1 X119.61 Y120.712 E7.44367
G1 X118.72 Y120.478 E7.47427
G1 X117.853 Y120.168 E7.5049
G1 X117.016 Y119.783 E7.53554
G1 X116.419 Y119.452 E7.55824
G1 X116.193 Y119.317 E7.567
G1 X115.424 Y118.811 E7.59762
G1 X114.702 Y118.24 E7.62823
G1 X114.032 Y117.609 E7.65884
G1 X113.419 Y116.922 E7.68947
G1 X112.868 Y116.184 E7.7201
G1 X112.383 Y115.401 E7.75073
G1 X111.968 Y114.58 E7.78133
G1 X111.626 Y113.725 E7.81196
G1 X111.36 Y112.844 E7.84257
G1 X111.17 Y111.943 E7.87319
G1 X111.089 Y111.34 E7.89343
G1 X111.071 Y111.171 E7.89908
G1 X111.036 Y110.769 E7.9125
G1 X111.012 Y110.417 E7.92424
G1 X110.989 Y109.497 E7.95485
G1 X111.04 Y108.64 E7.9834
G1 X111.123 Y107.819 E8.01085
G1 X111.162 Y107.479 E8.02223
G1 X111.277 Y106.419 E8.05769
G1 X111.497 Y104.277 E8.12931
G1 X111.601 Y103.311 E8.16163
G1 X111.696 Y102.562 E8.18674
G1 X111.748 Y102.199 E8.19893
G1 X111.796 Y101.899 E8.20904
G1 X111.884 Y101.402 E8.22583
G1 X112.084 Y100.503 E8.25646
G1 X112.361 Y99.625 E8.28708
G1 X112.713 Y98.774 E8.31771
G1 X113.084 Y98.051 E8.34474
G1 X113.214 Y97.82 E8.35355
G1 X113.7 Y97.038 E8.38418
G1 X114.252 Y96.302 E8.41478
G0 F6000 X114.584 Y96.528
G1 F1200 X115.189 Y95.858 E8.4448
G1 X115.85 Y95.243 E8.47483
G1 X116.564 Y94.69 E8.50487
G1 X117.324 Y94.202 E8.53491
G1 X118.124 Y93.783 E8.56494
G1 X118.958 Y93.436 E8.59499
G1 X119.819 Y93.165 E8.62501
G1 X120.701 Y92.97 E8.65505
G1 X121.597 Y92.855 E8.6851
G1 X122.499 Y92.819 E8.71513
G1 X123.401 Y92.863 E8.74516
G1 X124.296 Y92.987 E8.77521
G1 X125.176 Y93.189 E8.80524
G1 X126.035 Y93.469 E8.83529
G1 X126.865 Y93.823 E8.86531
G1 X127.661 Y94.25 E8.89535
G1 X128.417 Y94.745 E8.9254
G1 X129.125 Y95.305 E8.95543
G1 X129.781 Y95.925 E8.98545
G1 X130.417 Y96.647 E9.01745
G1 X130.493 Y96.742 E9.0215
G1 X131.025 Y97.472 E9.05154
G1 X131.491 Y98.245 E9.08156
G1 X131.887 Y99.057 E9.11161
G1 X132.161 Y99.762 E9.13677
G1 X132.272 Y100.081 E9.148
G1 X132.398 Y100.466 E9.16147
G1 X132.619 Y101.193 E9.18675
G1 X132.843 Y102.068 E9.21679
G1 X132.989 Y102.959 E9.24682
G1 X133.06 Y104.105 E9.28501
G1 X133.062 Y104.478 E9.29741
G1 X133.059 Y104.781 E9.30749
G1 X133.045 Y105.356 E9.32662
G1 X133.034 Y105.636 E9.33594
G1 X133.005 Y106.196 E9.35459
G1 X132.987 Y106.481 E9.36409
G1 X132.932 Y107.154 E9.38655
G1 X132.842 Y108.132 E9.41922
G1 X132.742 Y109.178 E9.45416
G1 X132.67 Y109.872 E9.47737
G1 X132.558 Y110.79 E9.50813
G1 X132.408 Y111.68 E9.53815
G1 X132.243 Y112.342 E9.56084
G1 X132.118 Y112.755 E9.57519
G1 X131.933 Y113.323 E9.59506
G1 X131.615 Y114.168 E9.62509
G1 X131.224 Y114.982 E9.65513
G1 X130.763 Y115.759 E9.68517
G1 X130.234 Y116.491 E9.71521
G1 X129.643 Y117.174 E9.74525
G1 X128.994 Y117.802 E9.77529
G1 X128.292 Y118.37 E9.80533
G1 X127.543 Y118.874 E9.83535
G1 X126.786 Y119.292 E9.86411
G1 X126.419 Y119.475 E9.87775
G1 X125.778 Y119.767 E9.90118
G1 X124.93 Y120.077 E9.93121
G1 X124.058 Y120.311 E9.96124
G1 X123.168 Y120.467 E9.99129
G1 X122.268 Y120.544 E10.02134
G1 X121.365 Y120.54 E10.05137
G1 X120.466 Y120.457 E10.0814
G1 X119.577 Y120.294 E10.11146
G1 X118.707 Y120.054 E10.14148
G1 X117.861 Y119.738 E10.17151
G1 X117.047 Y119.347 E10.20155
G1 X116.624 Y119.109 E10.21769
G1 X116.398 Y118.974 E10.22645
G1 X115.644 Y118.477 E10.25648
G1 X114.937 Y117.915 E10.28652
G1 X114.282 Y117.293 E10.31657
G1 X113.685 Y116.615 E10.34661
G1 X113.15 Y115.888 E10.37663
G1 X112.682 Y115.115 E10.40669
G1 X112.284 Y114.305 E10.43671
G1 X111.959 Y113.462 E10.46676
G1 X111.71 Y112.594 E10.49679
G1 X111.486 Y111.297 E10.54057
G1 X111.468 Y111.128 E10.54622
G1 X111.435 Y110.742 E10.55911
G1 X111.411 Y110.39 E10.57084
G1 X111.389 Y109.487 E10.60088
G1 X111.438 Y108.68 E10.62777
G1 X111.52 Y107.865 E10.65502
G1 X111.559 Y107.525 E10.6664
G1 X111.674 Y106.462 E10.70196
G1 X111.895 Y104.319 E10.77362
G1 X111.998 Y103.362 E10.80563
G1 X112.121 Y102.406 E10.83769
G1 X112.143 Y102.257 E10.8427
G1 X112.19 Y101.969 E10.8524
G1 X112.278 Y101.472 E10.86919
G1 X112.475 Y100.59 E10.89925
G1 X112.749 Y99.73 E10.92927
G1 X113.098 Y98.897 E10.95931
G1 X113.433 Y98.248 E10.9836
G1 X113.563 Y98.017 E10.99242
G1 X114.04 Y97.25 E11.02246
G1 X114.584 Y96.528 E11.05253
G1 F2700 E6.05253
;MESH:WalkingTeapot.obj
G0 F6000 X121.543 Y103.843
G0 X122.499 Y103.997
G0 X122.466 Y103.548
;TYPE:WALL-OUTER
G1 F2700 E11.05253
G1 F1200 X122.675 Y104.206 E11.07549
G1 X122.67 Y104.637 E11.08982
G1 X122.634 Y105.569 E11.12085
G1 X122.505 Y106.977 E11.16787
G1 X122.373 Y108.356 E11.21395
G1 X122.249 Y109.497 E11.25212
G1 X122.195 Y109.643 E11.2573
G1 X122.074 Y110.037 E11.27101
G1 X121.856 Y110.141 E11.27904
G1 X121.812 Y110.114 E11.28076
G1 X121.778 Y109.712 E11.29418
G1 X121.953 Y108.175 E11.34563
G1 X122.237 Y105.412 E11.43801
G1 X122.34 Y104.438 E11.47058
G1 X122.38 Y104.08 E11.48257
G1 X122.466 Y103.548 E11.50049
;MESH:NONMESH
G0 F300 X122.466 Y103.548 Z0.4
G0 F6000 X122.505 Y104.077
G0 X121.953 Y109.921
G0 X121.016 Y110.778
;TIME_ELAPSED:22.982408
;LAYER:1
M106 S85
;TYPE:WALL-INNER
;MESH:WalkingTeapot.obj
G1 F600 X121.027 Y110.628 E11.50549
G1 X121.036 Y110.508 E11.50949
G1 X121.044 Y110.333 E11.51532
G1 X121.087 Y109.919 E11.52917
G1 X121.087 Y109.916 E11.52927
G1 X121.151 Y109.303 E11.54976
G1 X121.296 Y108.05 E11.59172
G1 X121.501 Y106.083 E11.65749
G1 X121.585 Y105.241 E11.68564
G1 X121.734 Y103.913 E11.73009
G1 X121.739 Y103.886 E11.731
G1 X121.789 Y103.563 E11.74187
G1 X121.806 Y103.439 E11.74603
G1 X121.818 Y103.356 E11.74882
G1 X121.89 Y103.401 E11.74955
G1 X121.99 Y103.464 E11.75143
G1 X121.997 Y103.482
G1 X122.115 Y103.787 E11.75999
G1 X122.313 Y104.299 E11.77825
G1 X122.305 Y105.59 E11.82119
G1 X122.17 Y107.089 E11.87125
G1 X122.171 Y107.095 E11.87145
G1 X122.048 Y108.407 E11.91528
G1 X121.927 Y109.541 E11.95321
G1 X121.832 Y109.804 E11.96251
G1 X121.482 Y109.958 E11.97523
G1 X121.479 Y109.959 E11.97533
G1 X121.213 Y110.428 E11.98915
G1 X121.135 Y110.564 E11.99105
G1 X121.095 Y110.633 E11.99117
G1 X121.016 Y110.778 E11.99197
G1 F2700 E6.99197
G0 F7500 X120.671 Y115.449
G0 X120.775 Y115.783
;TYPE:WALL-OUTER
G1 F2700 E11.99197
G1 F600 X120.618 Y115.784 E11.9972
G1 X120.488 Y115.683 E12.00267
G1 X120.407 Y115.33 E12.01472
G1 X120.409 Y115.132 E12.0213
G1 X120.404 Y114.712 E12.03527
G1 X120.43 Y114.012 E12.05857
G1 X120.431 Y113.869 E12.06333
G1 X120.494 Y112.17 E12.11988
G1 X120.59 Y111.122 E12.15488
G1 X120.637 Y110.485 E12.17612
G1 X120.644 Y110.316 E12.18175
G1 X120.754 Y109.257 E12.21716
G1 X120.898 Y108.006 E12.25904
G1 X121.103 Y106.042 E12.32472
G1 X121.188 Y105.196 E12.353
G1 X121.339 Y103.852 E12.39798
G1 X121.393 Y103.504 E12.4097
G1 X121.478 Y102.907 E12.42975
G1 X121.603 Y102.748 E12.43648
G1 X122.315 Y103.197 E12.46448
G1 X122.713 Y104.226 E12.50117
G1 X122.705 Y105.605 E12.54704
G1 X122.574 Y107.067 E12.59586
G1 X122.575 Y107.072 E12.59603
G1 X122.446 Y108.449 E12.64203
G1 X122.32 Y109.63 E12.68153
G1 X122.203 Y109.954 E12.69299
G1 X122.139 Y110.107 E12.69851
G1 X121.761 Y110.272 E12.71222
G1 X121.445 Y110.827 E12.73347
G1 X121.355 Y110.993 E12.73975
G1 X121.333 Y111.206 E12.74687
G1 X121.271 Y111.896 E12.76991
G1 X121.202 Y112.717 E12.79731
G1 X121.015 Y114.79 E12.86654
G1 X120.92 Y115.465 E12.88921
G1 X120.775 Y115.783 E12.90084
G0 F7500 X120.671 Y115.449
