;FLAVOR:Marlin
;TIME:7884
;Filament used: 4.23328m
;Layer height: 0.2
;MINX:82.347
;MINY:80.146
;MINZ:0.2
;MAXX:155.139
;MAXY:137.896
;MAXZ:43
;Generated with Cura_SteamEngine 4.8.0
M140 S50
M105
M190 S50
M104 S200
M105
M109 S200
M82 ;absolute extrusion mode
; Ender 3 Custom Start G-code
G92 E0 ; Reset Extruder
G28 ; Home all axes
G1 Z2.0 F3000 ; Move Z Axis up little to prevent scratching of Heat Bed
G1 X0.1 Y20 Z0.3 F5000.0 ; Move to start position
G1 X0.1 Y200.0 Z0.3 F1500.0 E15 ; Draw the first line
G1 X0.4 Y200.0 Z0.3 F5000.0 ; Move to side a little
G1 X0.4 Y20 Z0.3 F1500.0 E30 ; Draw the second line
G92 E0 ; Reset Extruder
G1 Z2.0 F3000 ; Move Z Axis up little to prevent scratching of Heat Bed
G1 X5 Y20 Z0.3 F5000.0 ; Move over to prevent blob squish
G92 E0
G92 E0
G1 F2700 E-5
;LAYER_COUNT:215
;LAYER:0
M107
G0 F6000 X85.354 Y104.237 Z0.2
;TYPE:SKIRT
G1 F2700 E0
G1 F1200 X86.02 Y103.712 E0.02821
G1 X86.047 Y103.693 E0.0293
G1 X86.715 Y103.272 E0.05557
G1 X87.422 Y102.92 E0.08183
G1 X88.161 Y102.642 E0.1081
G1 X89.266 Y102.376 E0.1459
G1 X90.046 Y102.244 E0.17221
G1 X90.834 Y102.192 E0.19848
G1 X91.623 Y102.22 E0.22473
G1 X92.405 Y102.327 E0.25099
G1 X92.889 Y102.435 E0.26748
G1 X93.667 Y102.634 E0.29419
G1 X94.046 Y102.662 E0.30683
G1 X94.373 Y102.717 E0.31786
G1 X94.618 Y102.205 E0.33674
G1 X95.101 Y101.429 E0.36714
G1 X95.657 Y100.641 E0.39921
G1 X95.733 Y100.395 E0.40778
G1 X96.165 Y99.272 E0.4478
G1 X96.486 Y98.55 E0.47408
G1 X96.877 Y97.864 E0.50034
G1 X97.336 Y97.222 E0.52659
G1 X97.825 Y96.663 E0.55129
G1 X98.388 Y96.078 E0.57829
G1 X98.964 Y95.538 E0.60456
G1 X99.382 Y95.207 E0.62229
G1 X99.754 Y94.933 E0.63766
G1 X100.413 Y94.497 E0.66394
G1 X100.892 Y94.236 E0.68208
G1 X100.952 Y94.206 E0.68431
G1 X101.675 Y93.89 E0.71056
G1 X102.638 Y93.594 E0.74406
G1 X102.793 Y93.557 E0.74936
G1 X104.891 Y92.384 E0.82931
G1 X105.599 Y92.034 E0.85558
G1 X106.477 Y91.715 E0.88665
G1 X108.558 Y91.097 E0.95885
G1 X108.984 Y87.227 E1.08834
G1 X109.11 Y86.448 E1.11459
G1 X109.314 Y85.685 E1.14086
G1 X109.594 Y84.947 E1.16711
G1 X109.948 Y84.241 E1.19338
G1 X110.371 Y83.574 E1.21965
G1 X110.859 Y82.953 E1.24592
G1 X111.408 Y82.385 E1.27219
G1 X112.011 Y81.876 E1.29844
G1 X112.663 Y81.43 E1.32471
G1 X113.055 Y81.205 E1.33975
G1 X113.309 Y81.069 E1.34933
G1 X114.023 Y80.732 E1.37559
G1 X114.768 Y80.469 E1.40187
G1 X115.535 Y80.282 E1.42812
G1 X116.318 Y80.174 E1.45441
G1 X117.107 Y80.146 E1.48067
G1 X117.524 Y80.163 E1.49455
G1 X117.772 Y80.18 E1.50282
G1 X118.022 Y80.201 E1.51117
G1 X119.291 Y80.329 E1.55359
G1 X120.071 Y80.448 E1.57983
G1 X120.836 Y80.646 E1.60611
G1 X121.577 Y80.919 E1.63238
G1 X122.067 Y81.149 E1.65038
G1 X122.264 Y81.25 E1.65774
G1 X122.947 Y81.645 E1.68399
G1 X123.587 Y82.108 E1.71026
G1 X124.177 Y82.633 E1.73653
G1 X124.711 Y83.215 E1.7628
G1 X125.361 Y84.124 E1.79996
G1 X125.394 Y84.178 E1.80207
G1 X125.771 Y84.871 E1.82831
G1 X126.076 Y85.6 E1.85459
G1 X126.306 Y86.355 E1.88084
G1 X126.458 Y87.13 E1.90711
G1 X126.531 Y87.917 E1.9334
G1 X126.514 Y88.855 E1.9646
G1 X126.229 Y92.489 E2.08584
G1 X126.496 Y92.598 E2.09543
G1 X127.386 Y93.029 E2.12832
G1 X127.471 Y93.077 E2.13157
G1 X128.163 Y93.517 E2.15884
G1 X131.004 Y95.542 E2.27488
G1 X131.623 Y96.033 E2.30116
G1 X132.329 Y96.738 E2.33435
G1 X132.729 Y97.192 E2.35447
G1 X133.221 Y97.81 E2.38074
G1 X133.647 Y98.474 E2.40698
G1 X133.701 Y98.58 E2.41094
G1 X134.605 Y99.588 E2.45597
G1 X135.102 Y100.202 E2.48225
G1 X135.67 Y101.105 E2.51773
G1 X137.114 Y103.792 E2.61919
G1 X137.471 Y104.466 E2.64455
G1 X137.805 Y105.182 E2.67083
G1 X138.077 Y105.971 E2.69859
G1 X138.239 Y106.536 E2.71814
G1 X138.704 Y106.624 E2.73388
G1 X139.288 Y106.797 E2.75414
G1 X139.735 Y106.656 E2.76973
G1 X140.509 Y106.496 E2.79601
G1 X141.367 Y106.412 E2.82469
G1 X142.637 Y106.358 E2.86697
G1 X143.426 Y106.364 E2.89321
G1 X143.503 Y106.372 E2.89578
G1 X144.017 Y106.319 E2.91297
G1 X144.564 Y106.302 E2.93117
G1 X145.325 Y106.315 E2.95649
G1 X145.79 Y106.346 E2.97199
G1 X146.574 Y106.439 E2.99825
G1 X147.562 Y106.673 E3.03202
G1 X147.728 Y106.724 E3.03779
G1 X148.515 Y107.013 E3.06568
G1 X149.507 Y107.439 E3.10158
G1 X150.216 Y107.787 E3.12785
G1 X150.886 Y108.205 E3.15412
G1 X151.653 Y108.813 E3.18667
G1 X151.923 Y109.056 E3.19875
G1 X151.969 Y109.094 E3.20074
G1 X152.555 Y109.623 E3.227
G1 X153.084 Y110.21 E3.25328
G1 X153.552 Y110.846 E3.27954
G1 X154.015 Y111.649 E3.31037
G1 X154.249 Y112.117 E3.32777
G1 X154.565 Y112.84 E3.35402
G1 X154.808 Y113.592 E3.3803
G1 X155.004 Y114.575 E3.41364
G1 X155.075 Y115.108 E3.43153
G1 X155.139 Y115.895 E3.45779
G1 X155.124 Y116.685 E3.48407
G1 X155.029 Y117.469 E3.51033
G1 X154.907 Y118.041 E3.52979
G1 X154.868 Y118.196 E3.5351
G1 X154.729 Y118.682 E3.55192
G1 X154.608 Y119.058 E3.56505
G1 X154.328 Y119.797 E3.59134
G1 X153.975 Y120.503 E3.61759
G1 X153.616 Y121.052 E3.63941
G1 X153.622 Y121.056 E3.63965
G1 X153.429 Y121.351 E3.65137
G1 X152.964 Y121.989 E3.67763
G1 X152.437 Y122.577 E3.70389
G1 X151.853 Y123.109 E3.73017
G1 X151.127 Y123.638 E3.76005
G1 X150.694 Y123.917 E3.77718
G1 X150.402 Y124.096 E3.78857
G1 X150.14 Y124.249 E3.79866
G1 X149.439 Y124.612 E3.82492
G1 X148.652 Y124.92 E3.85303
G1 X148.24 Y125.056 E3.86746
G1 X147.687 Y125.216 E3.8866
G1 X147.235 Y125.329 E3.9021
G1 X146.398 Y125.478 E3.93038
G1 X145.99 Y125.537 E3.94409
G1 X145.58 Y125.593 E3.95785
G1 X144.791 Y125.62 E3.98411
G1 X143.99 Y125.566 E4.01081
G1 X143.531 Y125.511 E4.02618
G1 X142.753 Y125.377 E4.05244
G1 X142.282 Y125.246 E4.0687
G1 X141.572 Y125.17 E4.09245
G1 X140.693 Y125.014 E4.12214
G1 X139.923 Y124.837 E4.14842
G1 X139.176 Y124.583 E4.17467
G1 X138.488 Y124.268 E4.19983
G1 X138.209 Y124.339 E4.20941
G1 X137.428 Y124.458 E4.23568
G1 X136.911 Y124.476 E4.25289
G1 X136.573 Y125.203 E4.27956
G1 X136.205 Y125.901 E4.3058
G1 X136.181 Y125.936 E4.30721
G1 X136.131 Y126.215 E4.31664
G1 X135.913 Y126.974 E4.3429
G1 X135.762 Y127.375 E4.35716
G1 X135.409 Y128.247 E4.38844
G1 X135.283 Y128.551 E4.39939
G1 X134.944 Y129.264 E4.42565
G1 X134.534 Y129.939 E4.45192
G1 X134.059 Y130.57 E4.47818
G1 X133.479 Y131.191 E4.50645
G1 X133.429 Y131.239 E4.50875
G1 X132.832 Y131.756 E4.53502
G1 X132.186 Y132.211 E4.5613
G1 X131.704 Y132.467 E4.57945
G1 X131.247 Y132.761 E4.59753
G1 X131.046 Y132.873 E4.60518
G1 X130.337 Y133.222 E4.63146
G1 X129.83 Y133.42 E4.64957
G1 X129.312 Y133.575 E4.66755
G1 X129.036 Y133.785 E4.67908
G1 X128.175 Y134.295 E4.71237
G1 X127.259 Y134.76 E4.74653
G1 X127.166 Y134.842 E4.75066
G1 X126.523 Y135.301 E4.77693
G1 X125.822 Y135.7 E4.80376
G1 X125.002 Y136.112 E4.83428
G1 X124.279 Y136.43 E4.86055
G1 X123.323 Y136.726 E4.89384
G1 X121.59 Y137.142 E4.95312
G1 X121.164 Y137.258 E4.9678
G1 X120.033 Y137.56 E5.00674
G1 X119.261 Y137.725 E5.03299
G1 X118.143 Y137.823 E5.07032
G1 X113.495 Y137.896 E5.22493
G1 X112.706 Y137.868 E5.25119
G1 X111.777 Y137.732 E5.28242
G1 X109.118 Y137.176 E5.37277
G1 X108.354 Y136.975 E5.39905
G1 X107.47 Y136.634 E5.43056
G1 X104.199 Y135.138 E5.55019
G1 X103.498 Y134.774 E5.57647
G1 X102.713 Y134.247 E5.60791
G1 X99.805 Y132.029 E5.72956
G1 X99.202 Y131.519 E5.75582
G1 X98.571 Y130.854 E5.78631
G1 X98.257 Y130.481 E5.80253
G1 X98.214 Y130.452 E5.80425
G1 X97.609 Y129.943 E5.83055
G1 X96.994 Y129.301 E5.86012
G1 X96.096 Y128.249 E5.90612
G1 X95.615 Y127.623 E5.93238
G1 X95.115 Y126.796 E5.96452
G1 X93.411 Y123.534 E6.08693
G1 X93.082 Y122.817 E6.11317
G1 X92.796 Y121.96 E6.14322
G1 X91.184 Y122.062 E6.19694
G1 X90.394 Y122.072 E6.22322
G1 X89.608 Y122.003 E6.24946
G1 X88.832 Y121.854 E6.27574
G1 X88.076 Y121.627 E6.302
G1 X87.99 Y121.592 E6.30508
G1 X87.43 Y121.411 E6.32466
G1 X86.707 Y121.093 E6.35093
G1 X85.958 Y120.664 E6.37964
G1 X85.904 Y120.629 E6.38178
G1 X85.264 Y120.167 E6.40803
G1 X84.674 Y119.642 E6.4343
G1 X84.14 Y119.06 E6.46057
G1 X83.667 Y118.427 E6.48685
G1 X83.261 Y117.75 E6.51311
G1 X82.926 Y117.035 E6.53937
G1 X82.664 Y116.29 E6.56564
G1 X82.48 Y115.522 E6.5919
G1 X82.374 Y114.74 E6.61815
G1 X82.347 Y113.95 E6.64444
G1 X82.401 Y113.163 E6.67068
G1 X82.533 Y112.384 E6.69696
G1 X82.654 Y111.947 E6.71204
G1 X82.658 Y111.77 E6.71793
G1 X82.733 Y110.984 E6.74419
G1 X82.757 Y110.865 E6.74823
G1 X82.724 Y110.581 E6.75774
G1 X82.715 Y109.791 E6.78401
G1 X82.785 Y109.004 E6.81029
G1 X82.934 Y108.229 E6.83654
G1 X83.162 Y107.473 E6.8628
G1 X83.464 Y106.743 E6.88908
G1 X83.839 Y106.048 E6.91535
G1 X84.282 Y105.394 E6.94162
G1 X84.788 Y104.789 E6.96785
G1 X85.354 Y104.237 E6.99415
G0 F6000 X85.77 Y104.408
G1 F1200 X86.277 Y104.02 E7.01538
G1 X86.929 Y103.611 E7.04098
G1 X87.619 Y103.271 E7.06656
G1 X88.34 Y103.005 E7.09212
G1 X89.31 Y102.774 E7.12529
G1 X89.393 Y102.758 E7.1281
G1 X90.152 Y102.635 E7.15367
G1 X90.92 Y102.591 E7.17926
G1 X91.688 Y102.627 E7.20483
G1 X92.79 Y102.822 E7.24205
G1 X93.603 Y103.03 E7.26997
G1 X94.036 Y103.064 E7.28441
G1 X94.608 Y103.162 E7.30371
G1 X94.646 Y103.072 E7.30696
G1 X94.979 Y102.379 E7.33253
G1 X95.428 Y101.66 E7.36073
G1 X96.017 Y100.825 E7.39472
G1 X96.106 Y100.538 E7.40471
G1 X96.538 Y99.415 E7.44473
G1 X96.851 Y98.713 E7.47029
G1 X97.236 Y98.046 E7.49591
G1 X97.687 Y97.424 E7.52146
G1 X98.113 Y96.941 E7.54288
G1 X98.676 Y96.356 E7.56989
G1 X99.238 Y95.83 E7.59549
G1 X99.619 Y95.529 E7.61164
G1 X99.991 Y95.255 E7.627
G1 X100.634 Y94.831 E7.65262
G1 X101.071 Y94.594 E7.66916
G1 X101.131 Y94.564 E7.67139
G1 X101.836 Y94.256 E7.69698
G1 X102.73 Y93.983 E7.72807
G1 X102.941 Y93.933 E7.73528
G1 X105.087 Y92.733 E7.81706
G1 X105.777 Y92.393 E7.84264
G1 X106.59 Y92.098 E7.87141
G1 X108.926 Y91.404 E7.95246
G1 X109.381 Y87.271 E8.09075
G1 X109.505 Y86.512 E8.11633
G1 X109.707 Y85.77 E8.14191
G1 X109.985 Y85.053 E8.16749
G1 X110.336 Y84.368 E8.19309
G1 X110.756 Y83.724 E8.21866
G1 X111.24 Y83.126 E8.24425
G1 X111.784 Y82.583 E8.26981
G1 X112.382 Y82.098 E8.29542
G1 X113.244 Y81.557 E8.32927
G1 X113.498 Y81.421 E8.33885
G1 X114.194 Y81.094 E8.36443
G1 X114.92 Y80.841 E8.39
G1 X115.669 Y80.664 E8.4156
G1 X116.432 Y80.566 E8.44118
G1 X117.497 Y80.562 E8.47661
G1 X117.982 Y80.599 E8.49278
G1 X119.251 Y80.727 E8.5352
G1 X120.011 Y80.844 E8.56078
G1 X120.755 Y81.039 E8.58636
G1 X121.475 Y81.311 E8.61196
G1 X121.884 Y81.505 E8.62702
G1 X122.081 Y81.606 E8.63438
G1 X122.746 Y81.992 E8.65995
G1 X123.368 Y82.445 E8.68555
G1 X123.939 Y82.96 E8.71112
G1 X124.454 Y83.532 E8.73672
G1 X125.019 Y84.332 E8.7693
G1 X125.052 Y84.386 E8.7714
G1 X125.419 Y85.063 E8.79701
G1 X125.713 Y85.773 E8.82257
G1 X125.932 Y86.511 E8.84818
G1 X126.073 Y87.267 E8.87376
G1 X126.135 Y88.033 E8.89932
G1 X126.115 Y88.824 E8.92563
G1 X125.826 Y92.508 E9.04854
G1 X125.795 Y92.745 E9.05649
G1 X126.345 Y92.969 E9.07624
G1 X127.19 Y93.377 E9.10745
G1 X127.275 Y93.425 E9.1107
G1 X127.931 Y93.843 E9.13657
G1 X130.772 Y95.868 E9.25261
G1 X131.374 Y96.346 E9.27818
G1 X132.029 Y97.002 E9.30901
G1 X132.429 Y97.456 E9.32913
G1 X132.907 Y98.059 E9.35473
G1 X133.32 Y98.708 E9.38031
G1 X133.373 Y98.813 E9.38422
G1 X134.307 Y99.855 E9.43077
G1 X134.79 Y100.454 E9.45636
G1 X135.317 Y101.294 E9.48934
G1 X136.76 Y103.979 E9.59072
G1 X137.117 Y104.653 E9.61609
G1 X137.442 Y105.351 E9.6417
G1 X137.692 Y106.081 E9.66736
G1 X137.922 Y106.883 E9.69511
G1 X138.629 Y107.018 E9.71905
G1 X139.277 Y107.213 E9.74156
G1 X140.011 Y107 E9.76698
G1 X140.768 Y106.864 E9.79256
G1 X141.384 Y106.812 E9.81312
G1 X142.654 Y106.758 E9.8554
G1 X143.423 Y106.765 E9.88098
G1 X143.489 Y106.772 E9.88319
G1 X144.029 Y106.719 E9.90123
G1 X144.576 Y106.702 E9.91944
G1 X145.298 Y106.714 E9.94345
G1 X145.763 Y106.745 E9.95895
G1 X146.527 Y106.836 E9.98454
G1 X147.444 Y107.055 E10.0159
G1 X147.61 Y107.106 E10.02168
G1 X148.357 Y107.38 E10.04814
G1 X149.349 Y107.806 E10.08405
G1 X150.039 Y108.146 E10.10963
G1 X150.69 Y108.556 E10.13522
G1 X151.385 Y109.11 E10.16478
G1 X151.654 Y109.353 E10.17684
G1 X151.717 Y109.404 E10.17954
G1 X152.286 Y109.92 E10.20508
G1 X152.8 Y110.493 E10.23069
G1 X153.25 Y111.116 E10.25625
G1 X153.657 Y111.828 E10.28352
G1 X153.891 Y112.296 E10.30093
G1 X154.199 Y113.001 E10.32652
G1 X154.431 Y113.734 E10.35209
G1 X154.607 Y114.628 E10.38239
G1 X154.678 Y115.161 E10.40028
G1 X154.74 Y115.928 E10.42587
G1 X154.722 Y116.697 E10.45146
G1 X154.624 Y117.459 E10.47701
G1 X154.519 Y117.944 E10.49351
G1 X154.48 Y118.099 E10.49883
G1 X154.348 Y118.56 E10.51478
G1 X154.227 Y118.936 E10.52792
G1 X153.954 Y119.655 E10.5535
G1 X153.607 Y120.342 E10.57909
G1 X153.283 Y120.834 E10.59869
G1 X153.287 Y120.837 E10.59885
G1 X153.094 Y121.132 E10.61058
G1 X152.64 Y121.753 E10.63617
G1 X152.125 Y122.324 E10.66174
G1 X151.552 Y122.837 E10.68732
G1 X150.91 Y123.302 E10.71369
G1 X150.477 Y123.581 E10.73082
G1 X150.201 Y123.75 E10.74158
G1 X149.939 Y123.903 E10.75167
G1 X149.255 Y124.256 E10.77727
G1 X148.527 Y124.54 E10.80326
G1 X148.115 Y124.676 E10.8177
G1 X147.59 Y124.828 E10.83587
G1 X147.138 Y124.941 E10.85137
G1 X146.133 Y125.12 E10.88532
G1 X145.933 Y125.141 E10.89201
G1 X145.506 Y125.198 E10.90634
G1 X144.738 Y125.219 E10.93189
G1 X144.038 Y125.168 E10.95524
G1 X143.579 Y125.113 E10.97061
G1 X142.821 Y124.982 E10.9962
G1 X142.376 Y124.856 E11.01158
G1 X141.642 Y124.776 E11.03614
G1 X140.763 Y124.62 E11.06583
G1 X140.014 Y124.447 E11.0914
G1 X139.286 Y124.196 E11.11701
G1 X138.589 Y123.872 E11.14257
G1 X138.539 Y123.842 E11.14451
G1 X138.089 Y123.955 E11.15995
G1 X137.328 Y124.066 E11.18552
G1 X136.65 Y124.086 E11.20808
G1 X136.21 Y125.034 E11.24285
G1 X135.851 Y125.714 E11.26842
G1 X135.801 Y125.787 E11.27136
G1 X135.737 Y126.143 E11.28339
G1 X135.392 Y127.225 E11.32117
G1 X135.039 Y128.093 E11.35233
G1 X134.913 Y128.397 E11.36328
G1 X134.582 Y129.092 E11.38888
G1 X134.181 Y129.748 E11.41445
G1 X133.713 Y130.359 E11.44005
G1 X133.202 Y130.902 E11.46485
G1 X133.152 Y130.95 E11.46716
G1 X132.57 Y131.453 E11.49274
G1 X131.939 Y131.893 E11.51833
G1 X131.482 Y132.134 E11.53551
G1 X131.052 Y132.411 E11.55252
G1 X130.851 Y132.523 E11.56018
G1 X130.161 Y132.862 E11.58575
G1 X129.696 Y133.043 E11.60234
G1 X129.129 Y133.213 E11.62203
G1 X128.794 Y133.466 E11.63599
G1 X127.994 Y133.938 E11.66689
G1 X127.029 Y134.428 E11.70288
G1 X126.87 Y134.566 E11.70989
G1 X126.24 Y135.006 E11.73545
G1 X125.642 Y135.342 E11.75826
G1 X124.822 Y135.754 E11.78878
G1 X124.118 Y136.063 E11.81435
G1 X123.229 Y136.337 E11.84529
G1 X121.497 Y136.753 E11.90454
G1 X121.061 Y136.872 E11.91957
G1 X119.93 Y137.174 E11.95851
G1 X119.178 Y137.333 E11.98407
G1 X118.137 Y137.423 E12.01882
G1 X113.489 Y137.496 E12.17344
G1 X112.721 Y137.468 E12.199
G1 X111.858 Y137.34 E12.22801
G1 X109.199 Y136.784 E12.31837
G1 X108.456 Y136.588 E12.34392
G1 X107.636 Y136.271 E12.37316
G1 X104.365 Y134.775 E12.4928
G1 X103.683 Y134.419 E12.51838
G1 X102.955 Y133.929 E12.54757
G1 X100.047 Y131.711 E12.66921
G1 X99.461 Y131.213 E12.69479
G1 X98.877 Y130.596 E12.72305
G1 X98.524 Y130.177 E12.74127
G1 X98.408 Y130.097 E12.74596
G1 X97.824 Y129.596 E12.77155
G1 X97.299 Y129.041 E12.79696
G1 X96.401 Y127.989 E12.84296
G1 X95.932 Y127.379 E12.86855
G1 X95.47 Y126.611 E12.89836
G1 X93.766 Y123.349 E13.02077
G1 X93.446 Y122.65 E13.04634
G1 X93.183 Y121.86 E13.07403
G1 X93.096 Y121.54 E13.08506
G1 X91.159 Y121.663 E13.14962
G1 X90.39 Y121.672 E13.1752
G1 X89.624 Y121.601 E13.20078
G1 X88.869 Y121.451 E13.22638
G1 X88.135 Y121.223 E13.25195
G1 X88.089 Y121.203 E13.25362
G1 X87.553 Y121.029 E13.27236
G1 X86.85 Y120.717 E13.29794
G1 X86.175 Y120.329 E13.32384
G1 X86.121 Y120.294 E13.32598
G1 X85.498 Y119.842 E13.35158
G1 X84.926 Y119.329 E13.37713
G1 X84.41 Y118.759 E13.4027
G1 X83.955 Y118.138 E13.42831
G1 X83.568 Y117.474 E13.45387
G1 X83.252 Y116.772 E13.47948
G1 X83.01 Y116.042 E13.50506
G1 X82.845 Y115.291 E13.53063
G1 X82.759 Y114.527 E13.5562
G1 X82.753 Y113.757 E13.58181
G1 X82.827 Y112.992 E13.60738
G1 X82.98 Y112.238 E13.63296
G1 X83.053 Y112.004 E13.64112
G1 X83.058 Y111.788 E13.6483
G1 X83.131 Y111.022 E13.6739
G1 X83.16 Y110.877 E13.67881
G1 X83.122 Y110.536 E13.69023
G1 X83.116 Y109.766 E13.71584
G1 X83.19 Y109.001 E13.7414
G1 X83.342 Y108.247 E13.76698
G1 X83.573 Y107.513 E13.79258
